!!!!SEGMENT: pl-cz--iii-349--001_koperski-maksymilian--msza-b-kyrie.krn
!!!cenid: 18xx:887
!!!COM: Koperski, Maksymilian
!!!COM-rismid: pe30060120
!!!CDT: 1812-1886
!!!CNT:
!!!OPR: Msza B
!!!OTL: Kyrie
!!!OMV: 001
!!!PDT: 1834
!!!AGN: Sacred; Mass
!!!SMS-siglum: PL-CZ
!!!SMS-shelfmark: III-349
!!!SMS-shelfwork: 001-001 M
!!!SMS-variant:
!!!SMS-altvar:
!!!NIFC-rismid: 300000599
!!!URL-scan: http://repozytorium.nifc.pl/skany/pl-cz-nut--iii-349
!!!ONB-nifc: UWAGA: części Mszy: Kyrie, Gloria, Credo, Et incarnatus, Et resurrexit, Sanctus, Pleni, Benedictus, Agnus Dei
!!!key: B-
**kern	**fba	**dynam	**kern	**dynam	**kern	**dynam	**kern	**dynam	**kern	**text	**dynam	**kern	**text	**dynam	**kern	**text	**dynam	**kern	**text	**dynam	**kern	**dynam	**kern	**dynam	**kern	**dynam	**kern	**dynam	**kern	**dynam	**kern	**dynam	**kern	**dynam
*part15	*part15	*part15	*part14	*part14	*part13	*part13	*part12	*part12	*part11	*part11	*part11	*part10	*part10	*part10	*part9	*part9	*part9	*part8	*part8	*part8	*part7	*part7	*part6	*part6	*part5	*part5	*part4	*part4	*part3	*part3	*part2	*part2	*part1	*part1
*staff15	*	*	*staff14	*	*staff13	*	*staff12	*	*staff11	*staff11	*	*staff10	*staff10	*	*staff9	*staff9	*	*staff8	*staff8	*	*staff7	*	*staff6	*	*staff5	*	*staff4	*	*staff3	*	*staff2	*	*staff1	*
*I"Organo	*	*	*I"Alto Viola	*	*I"Violino Secondo	*	*I"Violino Primo	*	*I"Basso	*	*	*I"Tenore	*	*	*I"Alto	*	*	*I"Canto	*	*	*I"Timpano in B C. G.	*	*I"Clarino Secondo in B	*	*I"Clarino Primo in B	*	*I"Fagotto Primo	*	*I"Clarinetto Secondo in B	*	*I"Clarinetto Primo in B	*	*I"Flauto	*
*I'org	*	*	*I'a-vla	*	*I'vl II	*	*I'vl I	*	*I'B	*	*	*I'T	*	*	*I'A	*	*	*I'S	*	*	*I'timp in B	*	*I'clno II	*	*I'clno I	*	*I'fag I	*	*I'cl II	*	*I'cl I	*	*I'fl	*
*ICklav	*	*	*ICstr	*	*ICstr	*	*ICstr	*	*ICvox	*	*	*ICvox	*	*	*ICvox	*	*	*ICvox	*	*	*ICidio	*	*ICbras	*	*ICbras	*	*ICww	*	*ICww	*	*ICww	*	*ICww	*
*Iorgan	*	*	*Iviola	*	*Ivioln	*	*Ivioln	*	*Ibass	*	*	*Itenor	*	*	*Ialto	*	*	*Isoprn	*	*	*Itimpa	*	*Iclrno	*	*Iclrno	*	*Ifagot	*	*Iclars	*	*Iclars	*	*Iflt	*
*clefF4	*	*	*clefC3	*	*clefG2	*	*clefG2	*	*clefF4	*	*	*clefC4	*	*	*clefC3	*	*	*clefC1	*	*	*clefF4	*	*clefG2	*	*clefG2	*	*clefF4	*	*clefG2	*	*clefG2	*	*clefG2	*
*B-:	*	*	*B-:	*	*B-:	*	*B-:	*	*B-:	*	*	*B-:	*	*	*B-:	*	*	*B-:	*	*	*B-:	*	*B-:	*	*B-:	*	*B-:	*	*B-:	*	*B-:	*	*B-:	*
*	*	*	*	*	*	*	*	*	*	*	*	*	*	*	*	*	*	*	*	*	*ITrd1c2	*	*ITrd1c2	*	*ITrd1c2	*	*	*	*ITrd1c2	*	*ITrd1c2	*	*	*
*k[b-e-]	*	*	*k[b-e-]	*	*k[b-e-]	*	*k[b-e-]	*	*k[b-e-]	*	*	*k[b-e-]	*	*	*k[b-e-]	*	*	*k[b-e-]	*	*	*k[b-e-]	*	*k[b-e-]	*	*k[b-e-]	*	*k[b-e-]	*	*k[b-e-]	*	*k[b-e-]	*	*k[b-e-]	*
*M3/4	*	*	*M3/4	*	*M3/4	*	*M3/4	*	*M3/4	*	*	*M3/4	*	*	*M3/4	*	*	*M3/4	*	*	*M3/4	*	*M3/4	*	*M3/4	*	*M3/4	*	*M3/4	*	*M3/4	*	*M3/4	*
!!LO:TX:t=P:problem: all\right	!	!	!	!	!	!	!	!	!	!	!	!	!	!	!	!	!	!	!	!	!	!	!	!	!	!	!	!	!	!	!	!	!
!	!	!	!	!	!	!	!	!	!	!	!	!	!	!	!	!	!	!	!	!	!	!	!	!	!	!	!	!	!	!	!	!	!LO:TX:a:t=Adagio	!
!LO:TX:a:B:t=Adagio	!	!	!	!	!LO:TX:a:B:t=Adagio	!LO:DY:a	!LO:TX:a:B:t=Adagio	!LO:DY:a	!LO:TX:a:B:t=Adagio	!	!	!LO:TX:a:B:t=Adagio	!	!	!LO:TX:a:B:t=Adagio	!	!	!LO:TX:a:B:t=Adagio	!	!	!LO:TX:a:B:t=Adagio	!	!LO:TX:a:B:t=Adagio	!	!LO:TX:a:B:t=Adagio	!	!LO:TX:a:B:t=Adagio	!	!LO:TX:a:B:t=Adagio	!	!LO:TX:a:B:t=Adagio	!	!	!
!	!	!	!	!LO:DY:b:t=fo	!	!	!	!	!	!	!	!	!	!	!	!	!	!	!	!	!	!	!	!	!	!	!	!	!	!	!	!	!	!
!	!	!	!	!	!	!	!	!	!	!	!	!	!	!	!	!	!	!	!	!	!	!	!	!	!	!	!	!LO:DY:b:t=for	!	!LO:DY:b:t=fo	!	!	!	!
16r	.	.	16b-\	f	16B-/ 16d	<	16dd\ 16bb-	< [	16r	.	.	16r	.	.	16r	.	.	16r	.	.	16r	.	16r	.	16r	.	16B-\	f	16dd\	f	16ff\	.	16bb-\	.
=1	=1	=1	=1	=1	=1	=1	=1	=1	=1	=1	=1	=1	=1	=1	=1	=1	=1	=1	=1	=1	=1	=1	=1	=1	=1	=1	=1	=1	=1	=1	=1	=1	=1	=1
*	*	*	*	*	*	*	*	*	*	*	*	*	*	*	*	*	*	*	*	*	*tremolo	*	*	*	*	*	*	*	*	*	*	*	*	*
!	!	!	!	!	!	!	!	!	!	!	!	!	!	!	!	!	!	!	!	!	!	!	!	!LO:DY:b:t=fo	!	!	!	!	!	!	!	!	!	!
!	!	!LO:DY:b:t=fo	!	!	!	!	!	!LO:DY:b:t=for	!	!	!	!	!	!	!	!	!	!	!	!	!LO:TX:a:t=t	!	!	!	!	!LO:DY:b:t=fo	!	!	!	!	!	!	!	!
2BB-^;/	.	f	2B-;/	>	2B-;/ 2d	.	2dd;\ 2bb-	f	4r	.	.	4r	.	.	4r	.	.	4r	.	.	32BB-^<;\LLL	.	2d^;/	f	2b-^<;\	f	2BB-;/	.	2dd^<;\	.	2ff^;\	.	2bb-^;\	f
.	.	.	.	.	.	.	.	.	.	.	.	.	.	.	.	.	.	.	.	.	32BB-^;\	.	.	.	.	.	.	.	.	.	.	.	.	.
.	.	.	.	.	.	.	.	.	.	.	.	.	.	.	.	.	.	.	.	.	32BB-^;\	.	.	.	.	.	.	.	.	.	.	.	.	.
.	.	.	.	.	.	.	.	.	.	.	.	.	.	.	.	.	.	.	.	.	32BB-^;\	.	.	.	.	.	.	.	.	.	.	.	.	.
.	.	.	.	.	.	.	.	.	.	.	.	.	.	.	.	.	.	.	.	.	32BB-^;\	.	.	.	.	.	.	.	.	.	.	.	.	.
.	.	.	.	.	.	.	.	.	.	.	.	.	.	.	.	.	.	.	.	.	32BB-^;\	.	.	.	.	.	.	.	.	.	.	.	.	.
.	.	.	.	.	.	.	.	.	.	.	.	.	.	.	.	.	.	.	.	.	32BB-^;\	.	.	.	.	.	.	.	.	.	.	.	.	.
.	.	.	.	.	.	.	.	.	.	.	.	.	.	.	.	.	.	.	.	.	32BB-^;\	.	.	.	.	.	.	.	.	.	.	.	.	.
.	.	.	.	.	.	.	.	.	4r;	.	.	4r;	.	.	4r;	.	.	4r;	.	.	32BB-^;\	.	.	.	.	.	.	.	.	.	.	.	.	.
.	.	.	.	.	.	.	.	.	.	.	.	.	.	.	.	.	.	.	.	.	32BB-^;\	.	.	.	.	.	.	.	.	.	.	.	.	.
.	.	.	.	.	.	.	.	.	.	.	.	.	.	.	.	.	.	.	.	.	32BB-^;\	.	.	.	.	.	.	.	.	.	.	.	.	.
.	.	.	.	.	.	.	.	.	.	.	.	.	.	.	.	.	.	.	.	.	32BB-^;\	.	.	.	.	.	.	.	.	.	.	.	.	.
.	.	.	.	.	.	.	.	.	.	.	.	.	.	.	.	.	.	.	.	.	32BB-^;\	.	.	.	.	.	.	.	.	.	.	.	.	.
.	.	.	.	.	.	.	.	.	.	.	.	.	.	.	.	.	.	.	.	.	32BB-^;\	.	.	.	.	.	.	.	.	.	.	.	.	.
.	.	.	.	.	.	.	.	.	.	.	.	.	.	.	.	.	.	.	.	.	32BB-^;\	.	.	.	.	.	.	.	.	.	.	.	.	.
.	.	.	.	]	.	.	.	.	.	.	.	.	.	.	.	.	.	.	.	.	32BB-^;\JJJ	.	.	.	.	.	.	.	.	.	.	.	.	.
4r	.	.	4r	.	4r	[	4r	[	4r	.	.	4r	.	.	4r	.	.	4r	.	.	4r	.	4r	.	4r	.	4r	.	4r	.	4r	.	4r	.
=2	=2	=2	=2	=2	=2	=2	=2	=2	=2	=2	=2	=2	=2	=2	=2	=2	=2	=2	=2	=2	=2	=2	=2	=2	=2	=2	=2	=2	=2	=2	=2	=2	=2	=2
!	!	!	!	!	!	!	!	!	!	!	!LO:DY:b:t=fo	!	!	!	!	!	!	!	!	!	!	!	!	!	!	!	!	!	!	!	!	!	!	!
!LO:TX:a:t=3	!	!	!LO:TX:a:t=3	!	!LO:TX:a:t=3	!	!LO:TX:a:t=3	!	!	!	!	!	!	!	!	!	!LO:DY:a	!	!	!LO:DY:a	!LO:TX:a:t=3	!	!LO:TX:a:t=3	!	!LO:TX:a:t=3	!	!LO:TX:a:t=Dolce	!	!LO:TX:a:t=3	!	!LO:TX:a:t=3	!	!LO:TX:t=P:problem:brak tt. 2-4	!
!	!	!	!	!	!	!	!	!	!	!	!	!	!	!LO:DY:b:t=fo	!	!	!LO:DY:b:t=for	!	!	!	!	!	!	!	!	!	!	!	!	!	!	!	!	!
2.r	.	.	2.r	.	2.r	.	2.r	.	4B-\	Ky-	f > ]	4f\	Ky-	f	(>4b-\	Ky-	f >	4dd\	Ky-	>	2.r	.	2.r	.	2.r	.	4B-\	.	2.r	.	2.r	.	2.ryy	.
!	!	!	!	!	!	!	!	!	!	!	!LO:DY:a	!	!	!	!	!	!	!	!	!	!	!	!	!	!	!	!	!	!	!	!	!	!	!
.	.	.	.	.	.	.	.	.	4A\	.	<	4e-\	.	.	4a\)	.	.	4cc\	-ri-	.	.	.	.	.	.	.	4A\	.	.	.	.	.	.	.
!	!	!	!	!	!	!	!	!	!	!	!	!	!	!	!	!	!	!	!	!LO:DY:a	!	!	!	!	!	!	!	!	!	!	!	!	!	!
.	.	.	.	.	.	.	.	.	4B-\	-ri-	[ [[	4d\	-ri-	.	4b-\	-ri-	]	4dd\	-e	] < [[	.	.	.	.	.	.	4B-\	.	.	.	.	.	.	.
=3	=3	=3	=3	=3	=3	=3	=3	=3	=3	=3	=3	=3	=3	=3	=3	=3	=3	=3	=3	=3	=3	=3	=3	=3	=3	=3	=3	=3	=3	=3	=3	=3	=3	=3
!	!	!	!	!	!	!	!	!	!	!	!LO:DY:a	!	!	!	!	!	!LO:DY:a	!	!	!LO:DY:a	!	!	!	!	!	!	!	!	!	!	!	!	!	!
2.r	.	.	2.r	.	2.r	.	2.r	.	2G-X\	-e-	<	2A^\	-e-	.	(2cc\	-e-	>	2ee-\	e-	>	2.r	.	2.r	.	2.r	.	2G-X\	.	2.r	.	2.r	.	2.ryy	.
.	.	.	.	.	.	.	.	.	4Gn\	.	[[	4B-\	.	.	4b-\)	.	]]	4dd\	.	]]	.	.	.	.	.	.	4Gn\	.	.	.	.	.	.	.
=4	=4	=4	=4	=4	=4	=4	=4	=4	=4	=4	=4	=4	=4	=4	=4	=4	=4	=4	=4	=4	=4	=4	=4	=4	=4	=4	=4	=4	=4	=4	=4	=4	=4	=4
!	!	!	!	!	!	!	!	!	!	!	!LO:DY:a	!	!	!	!	!	!LO:DY:a	!	!	!	!	!	!	!	!	!	!	!	!	!	!	!	!	!
2.r	.	.	2.r	.	2.r	.	2.r	.	2E-X\	-lej-	<	2e-\	-lej-	.	2g\	-lej-	>	4.cc\	-lej-	.	2.r	.	2.r	.	2.r	.	4E-\	.	2.r	.	2.r	.	2.ryy	.
.	.	.	.	.	.	.	.	.	.	.	.	.	.	.	.	.	.	.	.	.	.	.	.	.	.	.	8r	.	.	.	.	.	.	.
!	!	!	!	!	!	!	!	!	!	!	!	!	!	!	!	!	!	!	!	!LO:DY:a	!	!	!	!	!	!	!	!	!	!	!	!	!	!
.	.	.	.	.	.	.	.	.	.	.	.	.	.	.	.	.	.	(8gg\	.	>	.	.	.	.	.	.	8E-\L	.	.	.	.	.	.	.
!	!	!	!	!	!	!	!	!	!	!	!	!	!	!	!	!	!	!	!	!	!	!	!	!	!	!	!	!	!	!	!	!	!	!
.	.	.	.	.	.	.	.	.	(4En\	.	[[	4g\	.	.	4e-\	.	]]	16ff\LL	.	.	.	.	.	.	.	.	8En\	.	.	.	.	.	.	.
.	.	.	.	.	.	.	.	.	.	.	.	.	.	.	.	.	.	16ee-\	.	.	.	.	.	.	.	.	.	.	.	.	.	.	.	.
.	.	.	.	.	.	.	.	.	.	.	.	.	.	.	.	.	.	16dd\	.	.	.	.	.	.	.	.	8E\J	.	.	.	.	.	.	.
.	.	.	.	.	.	.	.	.	.	.	.	.	.	.	.	.	.	16cc\JJ)	.	]]	.	.	.	.	.	.	.	.	.	.	.	.	.	.
=5	=5	=5	=5	=5	=5	=5	=5	=5	=5	=5	=5	=5	=5	=5	=5	=5	=5	=5	=5	=5	=5	=5	=5	=5	=5	=5	=5	=5	=5	=5	=5	=5	=5	=5
!	!	!	!	!	!	!	!	!	!	!	!	!	!	!	!	!	!	!	!	!	!	!	!	!	!	!	!	!LO:DY:a	!	!	!	!	!	!
4r	.	.	4r	.	4r	.	4r	.	4F\)	.	.	4f\	.	.	4d\	.	.	4b-\	.	.	4r	.	4r	.	4r	.	4F\	<	4r	.	4r	.	4r	.
16r	.	.	8r	.	8r	.	8r	.	2F;\	-son	>	2f;\	-son	>	2c;\	-son	.	2a;\	-son	.	8.r	.	8.r	.	8.r	.	2F;\	[[	8r	.	8r	.	8r	.
8r	.	.	.	.	.	.	.	.	.	.	.	.	.	.	.	.	.	.	.	.	.	.	.	.	.	.	.	.	.	.	.	.	.	.
.	.	.	16r	.	16r	.	16r	.	.	.	.	.	.	.	.	.	.	.	.	.	.	.	.	.	.	.	.	.	16r	.	16r	.	16r	.
!	!	!	!	!	!	!LO:DY:a	!	!LO:DY:a	!	!	!	!	!	!	!	!	!	!	!	!	!	!	!	!	!	!	!	!	!	!	!	!	!	!
16F\	.	.	16f\	.	16f/ 16a	<	16ff\ 16fff	<	.	.	.	.	.	.	.	.	.	.	.	.	16r	.	16r	.	16r	.	.	.	16cc\	.	16ff\	.	16fff\	.
!	!	!	!	!	!	!	!	!	!	!	!	!	!	!	!	!	!	!	!	!	!LO:TX:b:t=t	!	!LO:TX:t=P:problem:2 fermaty	!	!	!	!	!	!	!	!	!	!	!
4F^;\	.	.	4f^;\	.	4f/ 4a	[[	4ff;\ 4fff	[[	.	.	.	.	.	.	.	.	.	.	.	.	32FF^;/LLL	.	4f^;/	.	4cc^<;\	.	.	.	4cc^<;\	.	4ff^;\	.	4fff^;\	.
.	.	.	.	.	.	.	.	.	.	.	.	.	.	.	.	.	.	.	.	.	32FF^;/	.	.	.	.	.	.	.	.	.	.	.	.	.
.	.	.	.	.	.	.	.	.	.	.	.	.	.	.	.	.	.	.	.	.	32FF^;/	.	.	.	.	.	.	.	.	.	.	.	.	.
.	.	.	.	.	.	.	.	.	.	.	.	.	.	.	.	.	.	.	.	.	32FF^;/	.	.	.	.	.	.	.	.	.	.	.	.	.
.	.	.	.	.	.	.	.	.	.	.	.	.	.	.	.	.	.	.	.	.	32FF^;/	.	.	.	.	.	.	.	.	.	.	.	.	.
.	.	.	.	.	.	.	.	.	.	.	.	.	.	.	.	.	.	.	.	.	32FF^;/	.	.	.	.	.	.	.	.	.	.	.	.	.
.	.	.	.	.	.	.	.	.	.	.	.	.	.	.	.	.	.	.	.	.	32FF^;/	.	.	.	.	.	.	.	.	.	.	.	.	.
.	.	.	.	.	.	.	.	.	.	.	]]	.	.	]]	.	.	.	.	.	.	32FF^;/JJJ	.	.	.	.	.	.	.	.	.	.	.	.	.
!	!	!	!	!	!	!	!	!	!	!	!	!	!	!	!	!	!	!LO:LB:g=original	!	!	!	!	!	!	!	!	!	!	!	!	!	!	!	!
=6	=6	=6	=6	=6	=6	=6	=6	=6	=6	=6	=6	=6	=6	=6	=6	=6	=6	=6	=6	=6	=6	=6	=6	=6	=6	=6	=6	=6	=6	=6	=6	=6	=6	=6
!LO:TX:a:t=2	!	!	!LO:TX:a:t=2	!	!LO:TX:a:t=2	!	!LO:TX:a:t=2	!	!	!	!	!	!	!	!	!	!	!	!	!LO:DY:a	!LO:TX:a:t=2	!	!LO:TX:a:t=2	!	!LO:TX:a:t=2	!	!	!LO:DY:a	!	!	!	!	!	!
!	!	!	!	!	!	!	!	!	!	!	!	!	!	!	!	!	!	!	!	!LO:DY:b:t=fo	!	!	!	!	!	!	!	!	!	!	!	!	!	!
!	!	!LO:DY:b:t=p.	!	!	!	!	!	!	!	!	!LO:DY:b:t=for	!	!	!	!	!	!	!	!	!	!	!	!	!	!	!	!	!	!LO:DY:b:t=p.	!	!	!	!	!
2.r	.	p	2.r	.	2.r	.	2.r	.	4B-\	Ky-	f	(4f\	Ky-	>	(4b-\	Ky-	f >	(4dd\	Ky-	f >	2.r	.	2.r	.	2.r	.	4B-\	<	(4dd\	p >	4ff\	p	(4fff\	p
!	!	!	!	!	!	!	!	!	!	!	!LO:DY:a	!	!	!	!	!	!	!	!	!	!	!	!	!	!	!	!	!	!	!	!	!	!	!
.	.	.	.	.	.	.	.	.	4F\	.	>	4e-\)	.	.	4a\)	.	.	4cc\)	.	.	.	.	.	.	.	.	4A\	.	4cc\	.	4ee-^\	.	4eee-\	.
!	!	!	!	!	!	!	!	!	!	!	!	!	!	!	!	!	!	!	!	!	!	!	!	!	!	!	!	!	!	!	!	!	!	!
.	.	.	.	.	.	.	.	.	4D\	ri-	]]	4d\	-ri-	]]	4b-\	-ri-	]]	4dd\	-ri-	]	.	.	.	.	.	.	4B-\	[[	4b-\)	]]	4dd\	.	4ddd\)	.
=7	=7	=7	=7	=7	=7	=7	=7	=7	=7	=7	=7	=7	=7	=7	=7	=7	=7	=7	=7	=7	=7	=7	=7	=7	=7	=7	=7	=7	=7	=7	=7	=7	=7	=7
!	!	!	!	!	!	!	!	!	!	!	!LO:DY:a	!	!	!LO:DY:a	!	!	!LO:DY:a	!	!	!LO:DY:a	!	!	!	!	!	!	!	!LO:DY:a	!	!LO:DY:a	!	!	!	!
2.r	.	.	2.r	.	2.r	.	2.r	.	(8.E-\L	-e-	<	(4g\	-e-	<	4cc\	-e-	<	4ee-\	-e-	<	2.r	.	2.r	.	2.r	.	4G\	>	(4ee-\	>	4gg\	.	4eee-\	.
.	.	.	.	.	.	.	.	.	16F\Jk	.	.	.	.	.	.	.	.	.	.	.	.	.	.	.	.	.	.	.	.	.	.	.	.	.
!	!	!	!	!	!	!	!	!	!	!	!	!	!	!	!	!	!	!	!	!	!	!	!	!	!	!	!	!	!	!	!	!	!	!
.	.	.	.	.	.	.	.	.	4G\	.	.	4f\)	.	.	4dd\	.	.	4ff\	.	.	.	.	.	.	.	.	4F\	.	4dd\	.	4ff^\	.	4ddd\	.
!	!	!	!	!	!	!	!	!	!	!	!	!	!	!	!LO:SIC:s=4een	!	!	!	!	!	!	!	!	!	!	!	!	!	!	!	!	!	!	!
.	.	.	.	.	.	.	.	.	4En\)	.	[	4en\	.	[[	4ee-\	.	[[	4gg\	.	[[	.	.	.	.	.	.	4En\	]]	4cc#X\)	]]	4ff-X\	.	(8eee-\L	.
.	.	.	.	.	.	.	.	.	.	.	.	.	.	.	.	.	.	.	.	.	.	.	.	.	.	.	.	.	.	.	.	.	8eeen\J)	.
!	!	!	!	!	!	!	!	!	!LO:LB:g=original	!	!	!LO:LB:g=original	!	!	!LO:LB:g=original	!	!	!	!	!	!	!	!	!	!	!	!	!	!	!	!	!	!	!
!	!	!	!	!	!	!	!	!	!	!	!	!	!	!	!	!	!	!	!	!	!	!	!	!	!	!	!LO:LB:g=original	!	!	!	!	!	!	!
=8	=8	=8	=8	=8	=8	=8	=8	=8	=8	=8	=8	=8	=8	=8	=8	=8	=8	=8	=8	=8	=8	=8	=8	=8	=8	=8	=8	=8	=8	=8	=8	=8	=8	=8
!	!	!	!	!	!	!	!	!	!	!	!	!	!	!	!	!	!LO:DY:a	!	!	!LO:DY:a	!	!	!	!LO:DY:a	!	!LO:DY:a	!	!	!	!	!	!	!	!
!	!	!	!	!	!	!LO:DY:b:t=for	!	!	!	!	!	!	!	!	!	!	!	!	!	!	!	!	!	!	!	!	!	!	!	!	!	!	!	!
4F\	.	.	4f\	.	8B-/L 8d	f <	16r	.	(2F\	-lej-	.	4f\	-le-	.	2dd\	-lej-	>	2ff\	-lej-	>	4FF/	.	4f/	<	4cc\	<	4F\	.	4dd\	.	4ff\	.	4fff\	.
.	.	.	.	.	.	.	(16fff\LL	.	.	.	.	.	.	.	.	.	.	.	.	.	.	.	.	.	.	.	.	.	.	.	.	.	.	.
.	.	.	.	.	16B-/L 16d	.	16eee-\	.	.	.	.	.	.	.	.	.	.	.	.	.	.	.	.	.	.	.	.	.	.	.	.	.	.	.
.	.	.	.	.	16B-/JJ 16d	.	16ccc\JJ	.	.	.	.	.	.	.	.	.	.	.	.	.	.	.	.	.	.	.	.	.	.	.	.	.	.	.
!	!	!	!	!	!	!	!	!LO:DY:a	!	!	!	!	!	!	!	!	!	!	!	!	!	!	!	!	!	!	!	!	!	!	!	!	!	!
8r	.	.	8r	.	8B-/L 8d	.	16aa\LL	>	.	.	.	4d\	.	.	.	.	.	.	.	.	8r	.	8r	.	8r	.	8r	.	8r	.	8r	.	8r	.
!	!	!	!	!	!	!	!	!	!	!	!	!	!	!	!	!	!	!	!	!	!	!	!	!	!	!	!	!	!	!	!	!	!	!
.	.	.	.	.	.	.	16ff\	.	.	.	.	.	.	.	.	.	.	.	.	.	.	.	.	.	.	.	.	.	.	.	.	.	.	.
!	!	!	!	!	!	!	!	!	!	!	!	!	!	!	!	!	!	!	!	!	!	!	!	!	!	!	!	!	!	!	!	!	!	!
!	!	!	!LO:TX:t=P:problem:mixed beam	!	!	!	!	!	!	!	!	!	!	!	!	!	!	!	!	!	!	!	!	!	!	!	!LO:TX:t=P:problem:mixed beam	!	!	!LO:DY:a	!	!LO:DY:a	!	!
!	!	!LO:DY:b:t=fo	!	!	!	!	!	!	!	!	!	!	!	!	!	!	!	!	!	!	!	!	!	!	!	!	!	!LO:DY:b:t=for	!	!	!	!	!	!
8F\L	.	f	8f/L	.	8B-/ 8d	.	16ee-\	.	.	.	.	.	.	.	.	.	.	.	.	.	8FF/L	.	8f/L	.	8cc\L	.	8F/L	f	8dd\L	f <	8ff\L	f <	8ddd\L	.
!	!	!	!	!	!	!	!	!	!	!	!	!	!	!	!	!	!	!	!	!	!	!	!	!	!	!	!	!	!	!	!	!	!	!
.	.	.	.	.	.	.	16cc\JJ	.	.	.	.	.	.	.	.	.	.	.	.	.	.	.	.	.	.	.	.	.	.	.	.	.	.	.
!	!	!	!	!LO:DY:b:t=for	!	!	!	!	!	!	!	!	!	!	!	!	!	!	!	!	!	!	!	!	!	!	!	!	!	!	!	!	!	!
8E-\	4_ 2_	.	8F/	f	8c/ 8e-	.	16a/LL	.	4FF/	.	.	4e-X^\	.	.	4e-\	.	]]	4a\	.	]	8FF/	.	8f/	.	8cc\	.	8FF/	.	8ee-\	.	8aa\	.	8eee-X\	.
.	.	.	.	.	.	.	16f/)	.	.	.	.	.	.	.	.	.	.	.	.	.	.	.	.	.	.	.	.	.	.	.	.	.	.	.
8E-\J	.	.	8F/J	.	8c/J 8e-	[[	16e-/	.	.	.	.	.	.	.	.	.	.	.	.	.	8FF/J	.	8f/J	.	8cc\J	.	8FF/J	.	8ee-\J	[[	8aa\J	[[	8eee-\J	.
.	.	.	.	.	.	.	16c/JJ	]]	.	.	.	.	.	.	.	.	.	.	.	.	.	.	.	.	.	.	.	.	.	.	.	.	.	.
!LO:LB:g=original	!	!	!	!	!	!	!	!	!	!	!	!	!	!	!	!	!	!	!	!	!	!	!	!	!	!	!	!	!LO:LB:g=original	!	!LO:LB:g=original	!	!	!
=9	=9	=9	=9	=9	=9	=9	=9	=9	=9	=9	=9	=9	=9	=9	=9	=9	=9	=9	=9	=9	=9	=9	=9	=9	=9	=9	=9	=9	=9	=9	=9	=9	=9	=9
!	!	!	!	!	!	!	!	!	!	!	!	!	!	!	!	!	!	!	!	!	!	!	!	!	!	!	!	!	!	!	!	!	!	!
4D\	6 3_	.	4B-/	.	4B-/ 4d	.	4B-/	.	4BB-/)	-son	.	4d\	-son	.	4d\	-son	.	4b-\	-son	.	4FF/	.	4d/	.	4b-\	.	4BB-/	.	4dd\	.	4bb-\	.	4ddd\	.
!	!	!	!	!	!	!	!	!	!	!	!LO:DY:a	!	!	!	!	!	!	!	!	!	!	!	!	!	!	!	!	!	!	!	!	!	!	!
!	!	!	!	!	!	!	!	!	!	!	!LO:DY:t=ffo	!	!	!	!	!	!	!	!	!	!	!	!	!	!	!	!	!	!	!	!	!	!	!
4BB-/	.	.	4b-\	.	4r	.	4r	.	8B-'\	Ky-	ff	4r	.	.	4r	.	.	4r	.	.	4r	.	4r	[	4r	[	4B-\	.	4r	.	4r	.	4r	.
!	!	!	!	!	!	!	!	!	!	!	!LO:DY:a	!	!	!	!	!	!	!	!	!	!	!	!	!	!	!	!	!	!	!	!	!	!	!
.	.	.	.	.	.	.	.	.	8B-'\	-ri-	<	.	.	.	.	.	.	.	.	.	.	.	.	.	.	.	.	.	.	.	.	.	.	.
4r	.	.	4b-\	.	4r	.	4r	.	8B-'\	-e	.	4r	.	.	4r	.	.	4r	.	.	4r	.	4r	.	4r	.	4B-\	.	4r	.	4r	.	4r	.
.	.	.	.	.	.	.	.	.	8B-'\	e-	[[	.	.	.	.	.	.	.	.	.	.	.	.	.	.	.	.	.	.	.	.	.	.	.
!	!	!	!LO:LB:g=original	!	!	!	!LO:LB:g=original	!	!	!	!	!	!	!	!	!	!	!	!	!	!	!	!	!	!	!	!	!	!	!	!	!	!	!
!	!	!	!	!	!	!	!	!	!	!	!	!	!	!	!	!	!	!	!	!	!	!	!	!	!	!	!	!	!	!	!	!	!LO:LB:g=original	!
=10	=10	=10	=10	=10	=10	=10	=10	=10	=10	=10	=10	=10	=10	=10	=10	=10	=10	=10	=10	=10	=10	=10	=10	=10	=10	=10	=10	=10	=10	=10	=10	=10	=10	=10
!	!	!	!	!	!	!	!	!	!	!	!	!	!	!	!	!	!	!	!	!	!	!	!	!	!	!	!	!	!	!	!	!	!	!
!	!	!	!	!	!	!LO:DY:a	!	!LO:DY:a	!LO:N:vis=8...	!	!	!	!	!	!	!	!LO:DY:a	!	!	!	!LO:TX:a:t=3	!	!LO:TX:a:t=3	!	!LO:TX:a:t=3	!	!	!	!	!	!	!	!	!
!	!	!	!	!	!	!	!	!	!	!	!	!	!	!LO:DY:b:t=ffor	!	!	!	!	!	!LO:DY:b:t=ffo	!	!	!	!	!	!	!	!	!	!	!	!	!	!
!	!	!LO:DY:b:t=for	!	!	!	!	!	!	!	!	!	!	!	!	!	!	!	!	!	!	!	!	!	!	!	!	!	!	!LO:DY:b:t=ffor	!	!	!	!	!
8.D\L	-5_ 3_	f <	8.g\L	ff	4B-/ 4f	>	(8.b-\L 8.aa-X	>	(8..A-X\L	-lej-	.	8..f\	Ky-	ff >	8.b-^\	Ky-	ff <	8.dd\	ky-	f >	2.r	.	2.r	.	2.r	.	8.F^\L	ff	4dd^\	ff	4ff^\	ff	4bb-\	f
16F\Jk	.	[[>	16e-\Jk	.	.	.	16een\Jk	.	.	.	.	.	.	.	16b-\	-ri-	.	16dd\	-ri-	.	.	.	.	.	.	.	16D\Jk	.	.	.	.	.	.	.
.	.	.	.	.	.	]	.	.	32F\Jkk	.	.	32f\	-ri-	.	.	.	.	.	.	.	.	.	.	.	.	.	.	.	.	.	.	.	.	.
!	!	!	!LO:TX:t=P:problem:mixed beam	!	!	!LO:DY:a	!	!	!	!	!	!	!	!	!	!	!	!	!	!	!	!	!	!	!	!	!LO:TX:t=P:problem:mixed beam	!	!	!	!	!	!	!
4A-X\	.	]]	8a-X\L	.	8B-/L 8f	<	16.ff\LL	.	4D\)	son	.	4f\	-e	.	4b-\	-e	.	4dd\	-e	.	.	.	.	.	.	.	8A-X\L	.	8r	.	8r	.	8r	.
!	!	!	!	!	!	!	!	!	!	!	!	!	!	!	!	!	!	!	!	!	!	!	!	!	!	!	!	!	!	!	!	!	!	!
.	.	.	.	.	.	.	32cc#X\K	.	.	.	.	.	.	.	.	.	.	.	.	.	.	.	.	.	.	.	.	.	.	.	.	.	.	.
!	!	!	!	!	!	!	!	!	!	!	!	!	!	!	!	!	!	!	!	!	!	!	!	!	!	!	!	!	!	!LO:DY:a	!	!LO:DY:a	!	!
.	.	.	8B-\	.	8B-/ 8f	.	16.dd\	.	.	.	.	.	.	.	.	.	.	.	.	.	.	.	.	.	.	.	8BB-\	.	8dd\L	<	8ff\L	>	8bb-\L	.
!	!	!	!	!	!	!	!	!	!	!	!	!	!	!	!	!	!	!	!	!	!	!	!	!	!	!	!	!	!	!	!	!	!	!
.	.	.	.	.	.	.	32b-\JJk	.	.	.	.	.	.	.	.	.	.	.	.	.	.	.	.	.	.	.	.	.	.	.	.	.	.	.
4r	.	.	8d\	.	8B-/ 8f	.	16.a-X/LL	.	4r	.	.	4r	.	]]	4r	.	[	4r	.	]	.	.	.	.	.	.	8D\	.	8dd\	.	8ff\	.	8bb-\	.
.	.	.	.	.	.	.	32f/K	.	.	.	.	.	.	.	.	.	.	.	.	.	.	.	.	.	.	.	.	.	.	.	.	.	.	.
.	.	.	8B-\J	.	8B-/J 8f	[[	16.d/)	]	.	.	.	.	.	.	.	.	.	.	.	.	.	.	.	.	.	.	8BB-\J	.	8dd\J	[[	8ff\J	]]	8bb-\J	.
.	.	.	.	.	.	.	32f/JJk	.	.	.	.	.	.	.	.	.	.	.	.	.	.	.	.	.	.	.	.	.	.	.	.	.	.	.
!	!	!	!	!	!LO:LB:g=original	!	!	!	!	!	!	!	!	!	!	!	!	!	!	!	!	!	!	!	!	!	!	!	!	!	!	!	!	!
=11	=11	=11	=11	=11	=11	=11	=11	=11	=11	=11	=11	=11	=11	=11	=11	=11	=11	=11	=11	=11	=11	=11	=11	=11	=11	=11	=11	=11	=11	=11	=11	=11	=11	=11
!	!	!	!	!	!	!	!	!	!	!	!LO:DY:a	!	!	!LO:DY:a	!	!	!LO:DY:a	!	!	!LO:DY:a	!	!	!	!	!	!	!	!	!	!	!	!	!	!
*	*	*	*	*	*	*	*	*	*	*	*	*	*ij	*	*	*ij	*	*	*ij	*	*	*	*	*	*	*	*	*	*	*	*	*	*	*
8.E-\L	5_ 3_	<	8.g^\L	.	4G/ 4e-	.	8.b-\L 8.bb-	.	8..B-\	Ky-	>	8..g\	Ky-	>	8.g^\	Ky-	<	8.ee-\	ky-	>	4FF/ 4AA	.	2.r	.	2.r	.	8.G^\L	.	4ee-^\	.	4gg^\	.	4bb-\	.
!	!	!	!	!	!	!	!	!	!	!	!	!	!	!	!	!	!	!	!	!	!	!	!	!	!	!	!	!	!	!	!	!	!	!
16G\Jk	.	[[>	16e-\Jk	.	.	.	16gg-X\Jk	.	.	.	.	.	.	.	16g\	-ri-	.	16ee-\	-ri-	.	.	.	.	.	.	.	16E-\Jk	.	.	.	.	.	.	.
.	.	.	.	.	.	.	.	.	32G\	-ri-	.	32g\	-ri-	.	.	.	.	.	.	.	.	.	.	.	.	.	.	.	.	.	.	.	.	.
!	!	!	!	!	!	!LO:DY:a	!	!	!	!	!	!	!	!	!	!	!	!	!	!	!	!	!	!	!	!	!	!	!	!	!	!	!	!
4B-\	.	]]	8b-\L	.	8G/L 8e-	<	16.ggn\LL	.	4E-\	-e	.	4g\	-e	.	4g\	-e	.	4ee-\	-e	.	4r	.	.	.	.	.	8B-\L	.	8r	.	8r	.	8r	.
*	*	*	*	*	*	*	*	*	*	*	*	*	*Xij	*	*	*Xij	*	*	*Xij	*	*	*	*	*	*	*	*	*	*	*	*	*	*	*
.	.	.	.	.	.	.	32dd\K	.	.	.	.	.	.	.	.	.	.	.	.	.	.	.	.	.	.	.	.	.	.	.	.	.	.	.
!	!	!	!	!	!	!	!	!	!	!	!	!	!	!	!	!	!	!	!	!	!	!	!	!	!	!	!	!	!	!LO:DY:a	!	!LO:DY:a	!	!
.	.	.	8e-\	.	8G/ 8e-	.	16.ee-\	.	.	.	.	.	.	.	.	.	.	.	.	.	.	.	.	.	.	.	8E-\	.	8ee-\L	<	8gg\L	>	8bb-\L	.
!	!	!	!	!	!	!	!	!	!	!	!	!	!	!	!	!	!	!	!	!	!	!	!	!	!	!	!	!	!	!	!	!	!	!
.	.	.	.	.	.	.	32a\JJk	.	.	.	.	.	.	.	.	.	.	.	.	.	.	.	.	.	.	.	.	.	.	.	.	.	.	.
4r	.	.	8g\	.	8G/ 8e-	.	16.b-/LL	.	4r	.	]	4r	.	]]	4r	.	[	4r	.	]]	4r	.	.	.	.	.	8G\	.	8ee-\	.	8gg\	.	8bb-\	.
.	.	.	.	.	.	.	32f#X/K	.	.	.	.	.	.	.	.	.	.	.	.	.	.	.	.	.	.	.	.	.	.	.	.	.	.	.
.	.	.	8e-\J	.	8G/J 8e-	[[	16.gn/	.	.	.	.	.	.	.	.	.	.	.	.	.	.	.	.	.	.	.	8E-\J	.	8ee-\J	[[	8gg\J	]]	8bb-\J	.
.	.	.	.	.	.	.	32e-/JJk	.	.	.	.	.	.	.	.	.	.	.	.	.	.	.	.	.	.	.	.	.	.	.	.	.	.	.
=12	=12	=12	=12	=12	=12	=12	=12	=12	=12	=12	=12	=12	=12	=12	=12	=12	=12	=12	=12	=12	=12	=12	=12	=12	=12	=12	=12	=12	=12	=12	=12	=12	=12	=12
!	!	!	!	!	!	!	!	!	!	!	!	!	!	!	!	!	!	!	!	!	!LO:TX:a:t=2	!	!	!	!	!	!	!	!	!	!	!	!	!
.	.	.	.	.	.	.	8qqgg/	f	.	.	.	.	.	.	.	.	.	.	.	.	.	.	.	.	.	.	.	.	.	.	.	.	.	.
!	!	!	!	!	!	!LO:DY:a	!	!	!	!	!LO:DY:a	!	!	!	!	!	!	!	!	!LO:DY:a	!	!	!	!	!	!	!	!	!	!	!	!	!	!
!	!	!	!	!	!	!	!	!	!	!	!	!	!	!	!	!	!LO:DY:b:t=fo.	!	!	!	!	!	!	!	!	!	!	!	!	!	!	!	!	!
!	!	!	!	!	!	!	!	!	!	!	!	!	!	!LO:DY:b:t=fo	!	!	!	!	!	!	!	!	!	!	!	!	!	!	!	!	!	!	!	!
8.En\L	-7_ 5_ 3_	.	8.g\L	.	16en/LL	<	8.gg\L 8.eeen	.	8.d-X\	Ky-	<	8.g\	Ky-	f	8.dd-X\	Ky-	f <	8.een\	Ky-	>	2.r	.	2.r	.	2.r	.	8.G^\L	.	4b-\	rfz	4ff-X\	.	4bb-\	.
.	.	.	.	.	16g/	.	.	.	.	.	.	.	.	.	.	.	.	.	.	.	.	.	.	.	.	.	.	.	.	.	.	.	.	.
.	.	.	.	.	16b-/	.	.	.	.	.	.	.	.	.	.	.	.	.	.	.	.	.	.	.	.	.	.	.	.	.	.	.	.	.
16G\Jk	.	<	16en\Jk	.	16dd-X/JJ	.	16ddd-X\Jk	.	16d-\	-ri-	.	16g\	-ri-	.	16dd-\	-ri-	.	16ee\	-ri-	.	.	.	.	.	.	.	16En\Jk	.	.	.	.	.	.	.
!	!	!	!	!	!	!LO:DY:a	!	!LO:DY:a	!	!	!	!	!	!	!	!	!	!	!	!	!	!	!	!	!	!	!	!	!	!	!	!	!	!
!	!	!	!	!	!	!	!	!	!	!	!	!	!	!	!	!	!	!LO:LB:g=original	!	!	!	!	!	!	!	!	!	!	!	!	!	!	!	!
8B-\L	.	.	8b-\L	.	16cc\LL	[ >	16.bb-\LL	>	8dn\	-e	.	8g\	-e	.	8dd-\	-e	.	8ee\	-e	]	.	.	.	.	.	.	8B-\L	.	8r	.	8r	.	8r	.
.	.	.	.	.	16b-\	.	.	.	.	.	.	.	.	.	.	.	.	.	.	.	.	.	.	.	.	.	.	.	.	.	.	.	.	.
!	!	!	!	!	!	!	!	!	!	!	!	!	!	!	!	!	!	!	!	!	!	!	!	!	!	!	!	!	!	!	!	!	!	!
.	.	.	.	.	.	.	32gg\K	.	.	.	.	.	.	.	.	.	.	.	.	.	.	.	.	.	.	.	.	.	.	.	.	.	.	.
!	!	!	!	!	!	!	!	!	!	!	!	!	!	!	!	!	!	!	!	!	!	!	!	!	!	!	!	!	!	!	!	!LO:DY:a	!	!
8d-X\	.	.	8e\	.	16a\	.	16.ee-\	.	8d\	e-	.	8g\	e-	.	8dd-\	e-	.	8ee\	e-	.	.	.	.	.	.	.	8E\	.	8b-\L	.	8ff-\L	<	8bb-\L	.
.	.	.	.	.	16b-\JJ	.	.	.	.	.	.	.	.	.	.	.	.	.	.	.	.	.	.	.	.	.	.	.	.	.	.	.	.	.
.	.	.	.	.	.	.	32dd-X\JJk	.	.	.	.	.	.	.	.	.	.	.	.	.	.	.	.	.	.	.	.	.	.	.	.	.	.	.
!	!	!	!	!	!LO:TX:t=P:problem:mixed beam	!LO:DY:a	!	!	!	!	!	!	!	!	!	!	!	!	!	!	!	!	!	!	!	!	!	!	!	!	!	!	!	!
8B-\	.	.	8g\	.	16b-/LL	] <	(16b-\LL	.	4B-\	-lej-	[	4g\	-lej-	.	4dd-\	-lej-	[[	4ee\	-lej-	.	.	.	.	.	.	.	8G\	.	8b-\	.	8ff-\	.	8bb-\	.
.	.	.	.	.	16cc/	.	16g\	.	.	.	.	.	.	.	.	.	.	.	.	.	.	.	.	.	.	.	.	.	.	.	.	.	.	.
!	!	!	!	!	!	!	!	!	!	!	!	!	!	!	!	!	!	!	!	!	!	!	!	!	!	!	!	!	!	!	!	!	!	!
8G\J	.	[[	8e\J	.	16dd-X/	.	16en\	.	.	.	.	.	.	.	.	.	.	.	.	.	.	.	.	.	.	.	8E\J	.	8b-\J	.	8ff-\J	[[	8bb-\J	.
!	!	!	!	!	!	!	!	!	!	!	!	!	!	!	!	!	!	!	!	!	!	!	!	!	!	!	!	!	!	!	!	!	!	!
.	.	.	.	.	16en/JJ	[[	16g\JJ)	]	.	.	.	.	.	.	.	.	.	.	.	.	.	.	.	.	.	.	.	.	.	.	.	.	.	.
=13	=13	=13	=13	=13	=13	=13	=13	=13	=13	=13	=13	=13	=13	=13	=13	=13	=13	=13	=13	=13	=13	=13	=13	=13	=13	=13	=13	=13	=13	=13	=13	=13	=13	=13
!	!	!	!LO:N:vis=4.	!	!	!	!	!	!	!	!LO:DY:a	!	!	!	!	!	!	!	!	!	!	!	!	!	!	!	!	!	!	!	!	!	!	!
4F\	5 3	.	4f\	.	4A/ 4f	.	4f/	.	4A\	-son	>	4f\	-son	.	4ccn\	-son	.	4ff\	-son	.	2.r	.	4f/	.	4cc\	.	4F\	.	4a\	.	4ff\	.	4aa\	.
!	!	!	!	!	!	!	!	!	!	!	!	!	!	!	!	!	!LO:DY:b:t=fo&colon;	!	!	!	!	!	!	!	!	!	!	!	!	!	!	!	!	!
!	!	!	!	!	!	!	!	!	!	!	!LO:DY:b:t=p.	!	!	!LO:DY:b:t=p.	!	!	!	!	!	!	!	!	!	!	!	!	!	!	!	!	!	!	!	!
4r	.	.	4r	.	4r	.	4r	.	4F\	Ky-	p ]]	4c\	Ky-	p	4a\	Ky-	f	4ff\	Ky-	.	.	.	4r	.	4r	.	4F\	.	4r	.	4r	.	4r	.
!	!	!	!	!	!	!	!	!	!	!	!LO:DY:a	!	!	!	!	!	!	!	!	!	!	!	!	!	!	!	!	!	!	!	!	!	!	!
4r	.	.	4r	.	4r	.	4r	.	4F\	-ri-	< [[	4c\	-ri-	.	4a\	-ri-	.	4ff\	-ri-	.	.	.	4r	.	4r	.	4f\	.	4r	.	4r	.	4r	.
!	!	!	!	!	!	!	!	!	!	!	!	!	!	!	!LO:LB:g=original	!	!	!	!	!	!	!	!	!	!	!	!	!	!	!	!	!	!	!
!	!	!	!	!	!	!	!	!	!	!	!	!LO:LB:g=original	!	!	!	!	!	!	!	!	!	!	!	!	!	!	!	!	!	!	!	!	!	!
!	!	!	!	!	!	!	!LO:LB:g=original	!	!	!	!	!	!	!	!	!	!	!	!	!	!	!	!	!	!	!	!	!	!	!	!	!	!	!
!	!	!	!	!	!	!	!	!	!	!	!	!	!	!	!	!	!	!	!	!	!LO:LB:g=original	!	!LO:LB:g=original	!	!LO:LB:g=original	!	!	!	!	!	!	!	!	!
=14	=14	=14	=14	=14	=14	=14	=14	=14	=14	=14	=14	=14	=14	=14	=14	=14	=14	=14	=14	=14	=14	=14	=14	=14	=14	=14	=14	=14	=14	=14	=14	=14	=14	=14
!LO:TX:a:t=2	!	!	!LO:TX:a:t=2	!	!LO:TX:a:t=2	!	!LO:TX:a:t=2	!	!	!	!	!	!	!	!	!	!	!	!	!	!LO:TX:t=P:problem:brak tt.15-16	!	!LO:TX:a:t=2	!	!LO:TX:a:t=2	!	!	!	!LO:TX:a:t=2	!	!LO:TX:a:t=2	!	!LO:TX:a:t=2	!
2.r	.	.	2.r	.	2.r	.	2.r	.	4G\	-e	.	4d-X\	-e	.	4b-\	-e	.	4een\	-e	.	2.ryy	.	2.r	.	2.r	.	4en\	.	2.r	.	2.r	.	2.r	.
!	!	!	!	!	!	!	!	!	!	!	!	!	!	!	!	!	!	!	!	!	!	!	!	!	!	!	!LO:SIC:s=4E-	!	!	!	!	!	!	!
.	.	.	.	.	.	.	.	.	4r	.	.	4r	.	.	4r	.	.	4r	.	.	.	.	.	.	.	.	4E-\	.	.	.	.	.	.	.
!	!	!	!	!	!	!	!	!	!	!	!LO:DY:a	!	!	!	!	!	!	!	!	!	!	!	!	!	!	!	!	!	!	!	!	!	!	!
.	.	.	.	.	.	.	.	.	4G-X\	e-	<	(4c\	e-	.	(4a\	e-	.	(4ee-X\	e-	.	.	.	.	.	.	.	4e-X\	.	.	.	.	.	.	.
!	!	!	!	!	!	!	!	!	!	!	!	!	!	!	!	!	!	!	!	!	!	!	!	!	!	!	!LO:LB:g=original	!	!	!	!	!	!	!
=15	=15	=15	=15	=15	=15	=15	=15	=15	=15	=15	=15	=15	=15	=15	=15	=15	=15	=15	=15	=15	=15	=15	=15	=15	=15	=15	=15	=15	=15	=15	=15	=15	=15	=15
!	!	!	!	!	!	!	!	!	!	!	!	!	!	!	!	!	!	!	!	!	!	!	!	!	!	!	!	!	!	!	!	!	!	!
2.r	.	.	2.r	.	2.r	.	2.r	.	2G\	.	.	2g\)	.	.	4b-\)	.	.	4dd\)	.	.	2.ryy	.	2.r	.	2.r	.	(8d\L	.	2.r	.	2.r	.	2.r	.
.	.	.	.	.	.	.	.	.	.	.	.	.	.	.	.	.	.	.	.	.	.	.	.	.	.	.	8A\	.	.	.	.	.	.	.
.	.	.	.	.	.	.	.	.	.	.	.	.	.	.	4r	.	.	4r	.	.	.	.	.	.	.	.	8B-\	.	.	.	.	.	.	.
.	.	.	.	.	.	.	.	.	.	.	.	.	.	.	.	.	.	.	.	.	.	.	.	.	.	.	8F#X\J)	.	.	.	.	.	.	.
!	!	!	!	!	!	!	!	!	!	!	!	!	!	!LO:DY:a	!	!	!	!	!	!LO:DY:a	!	!	!	!	!	!	!	!	!	!	!	!	!	!
.	.	.	.	.	.	.	.	.	4En\	-lej-	[	8e-X\L	-lei-	<	4e-\	-lej-	.	8cc\L	-lej-	<	.	.	.	.	.	.	8G\L	.	.	.	.	.	.	.
!	!	!	!	!	!	!	!	!	!	!	!	!	!	!	!	!	!	!LO:SIC:s=8cc#	!	!	!	!	!	!	!	!	!	!	!	!	!	!	!	!
.	.	.	.	.	.	.	.	.	.	.	.	8en\J	-s-	[[	.	.	.	8dd-X\J	.	.	.	.	.	.	.	.	16D\L	.	.	.	.	.	.	.
.	.	.	.	.	.	.	.	.	.	.	.	.	.	.	.	.	.	.	.	.	.	.	.	.	.	.	16E-\JJ	.	.	.	.	.	.	.
=16	=16	=16	=16	=16	=16	=16	=16	=16	=16	=16	=16	=16	=16	=16	=16	=16	=16	=16	=16	=16	=16	=16	=16	=16	=16	=16	=16	=16	=16	=16	=16	=16	=16	=16
!	!	!	!	!	!	!	!	!	!	!	!LO:DY:a	!	!	!LO:DY:b	!	!	!	!	!	!	!	!	!	!	!	!	!	!	!	!	!	!	!	!
4r	.	.	4r	.	4r	.	4r	.	2F\	-son	>	2f\	-son	>	4f\	-son	.	4ddn\	-son	.	4r	.	4r	.	4r	.	8.F\L	.	4r	.	4r	.	4r	.
.	.	.	.	.	.	.	.	.	.	.	.	.	.	.	.	.	.	.	.	.	.	.	.	.	.	.	16En\K	.	.	.	.	.	.	.
4r	.	.	4r	.	4r	.	4r	.	.	.	.	.	.	.	4r	.	.	4r	.	[	4r	.	4r	.	4r	.	8.F\	.	4r	.	4r	.	4r	.
.	.	.	.	.	.	.	.	.	.	.	.	.	.	]]	.	.	.	.	.	.	.	.	.	.	.	.	16E-X\Jk	.	.	.	.	.	.	.
!	!	!	!	!	!	!	!	!LO:DY:b:t=pp.	!	!	!LO:DY:a	!	!	!	!	!	!	!	!	!LO:DY:a	!	!	!	!	!	!	!	!	!	!LO:DY:a	!	!	!	!
!	!	!LO:DY:b:t=p.	!	!	!	!	!	!	!	!	!	!	!	!	!	!	!	!	!	!	!	!	!	!	!	!	!	!	!	!LO:DY:b	!	!	!	!
4F\	7 5	p	4f\	.	4c/ 4e-	f >	4e-/ 4a	pp	4FF/	lej-	] <	4e-\	lej-	.	4e-\	lej-	.	4a\	lej-	<	4FF/	p	4f/	p	4cc\	p	8.D\L	.	4cc\	f >	4ee-\	p	4aa\	.
.	.	.	.	.	.	]	.	.	.	.	.	.	.	.	.	.	.	.	.	.	.	.	.	.	.	.	16C\Jk	.	.	.	.	.	.	.
=17	=17	=17	=17	=17	=17	=17	=17	=17	=17	=17	=17	=17	=17	=17	=17	=17	=17	=17	=17	=17	=17	=17	=17	=17	=17	=17	=17	=17	=17	=17	=17	=17	=17	=17
*	*	*	*	*	*	*	*tremolo	*	*	*	*	*	*	*	*	*	*	*	*	*	*	*	*	*	*	*	*	*	*	*	*	*	*	*
!	!	!	!	!	!	!LO:DY:b	!	!	!	!	!	!	!	!	!	!	!	!	!	!	!	!	!	!	!	!	!	!	!	!	!	!	!	!
4BB-/	3	.	4B-/	.	8B-/L 8d	p <	32d/ 32b-LLL	.	4BB-/	-son	.	4d\	-son	.	4f\	-son	.	4b-\	-son	.	4BB-/	.	4d/	.	4b-\	.	4BB-/	.	4b-\	.	4dd\	.	4bb-\	.
.	.	.	.	.	.	.	32b-/ 32dd	.	.	.	.	.	.	.	.	.	.	.	.	.	.	.	.	.	.	.	.	.	.	.	.	.	.	.
.	.	.	.	.	.	.	32d/ 32b-	.	.	.	.	.	.	.	.	.	.	.	.	.	.	.	.	.	.	.	.	.	.	.	.	.	.	.
.	.	.	.	.	.	.	32b-/ 32dd	.	.	.	.	.	.	.	.	.	.	.	.	.	.	.	.	.	.	.	.	.	.	.	.	.	.	.
.	.	.	.	.	8g/J	.	32d/ 32b-	.	.	.	.	.	.	.	.	.	.	.	.	.	.	.	.	.	.	.	.	.	.	.	.	.	.	.
.	.	.	.	.	.	.	32b-/ 32dd	.	.	.	.	.	.	.	.	.	.	.	.	.	.	.	.	.	.	.	.	.	.	.	.	.	.	.
.	.	.	.	.	.	.	32d/ 32b-	.	.	.	.	.	.	.	.	.	.	.	.	.	.	.	.	.	.	.	.	.	.	.	.	.	.	.
.	.	.	.	.	.	.	32b-/ 32ddJJJ	.	.	.	.	.	.	.	.	.	.	.	.	.	.	.	.	.	.	.	.	.	.	.	.	.	.	.
*	*	*	*	*	*tremolo	*	*	*	*	*	*	*	*	*	*	*	*	*	*	*	*	*	*	*	*	*	*	*	*	*	*	*	*	*
!	!	!	!	!	!	!	!	!	!	!	!	!	!	!	!	!	!	!LO:TX:a:t=Solo	!	!	!	!	!	!	!	!	!	!	!	!	!	!	!	!
4r	.	.	4r	.	8g/L	[[	8b-\ 8ddL	.	4r	.	[	4r	.	.	4r	.	.	4dd\	Chri-	[	4r	.	4r	.	4r	.	4r	.	4r	]	4r	.	4r	.
.	.	.	.	.	8g/	.	8b-\ 8dd	.	.	.	.	.	.	.	.	.	.	.	.	.	.	.	.	.	.	.	.	.	.	.	.	.	.	.
4r	.	.	4r	.	8g/	.	8b-\ 8dd	.	4r	.	.	4r	.	.	4r	.	.	4dd\	-ste	.	4r	.	4r	.	4r	.	4r	.	4r	.	4r	.	4r	.
.	.	.	.	.	8g/J	.	8b-\ 8ddJ	.	.	.	.	.	.	.	.	.	.	.	.	.	.	.	.	.	.	.	.	.	.	.	.	.	.	.
!LO:LB:g=original	!	!	!	!	!	!	!	!	!	!	!	!	!	!	!	!	!	!	!	!	!	!	!	!	!	!	!	!	!LO:LB:g=original	!	!LO:LB:g=original	!	!	!
=18	=18	=18	=18	=18	=18	=18	=18	=18	=18	=18	=18	=18	=18	=18	=18	=18	=18	=18	=18	=18	=18	=18	=18	=18	=18	=18	=18	=18	=18	=18	=18	=18	=18	=18
!	!	!	!	!	!	!	!	!	!LO:TX:a:t=5	!	!	!LO:TX:a:t=3	!	!	!LO:TX:a:t=1.	!	!	!	!	!	!LO:TX:a:t=5	!	!LO:TX:a:t=5	!	!LO:TX:a:t=5	!	!	!	!LO:TX:a:t=5	!	!LO:TX:a:t=5	!	!LO:TX:a:t=5	!
.	.	.	.	.	.	.	8qdd/	.	.	.	.	.	.	.	.	.	.	8qdd/	.	.	.	.	.	.	.	.	.	.	.	.	.	.	.	.
*	*	*	*	*	*	*	*^	*	*	*	*	*	*	*	*	*	*	*	*	*	*	*	*	*	*	*	*	*	*	*	*	*	*	*
4D\	-6 4	pp	8r	.	8r	.	4.bb-/	8r	.	2.r	.	.	2.r	.	.	2.r	.	.	4.bb-\	Chri-	.	2.r	.	2.r	.	2.r	.	2.r	.	2.r	.	2.r	.	2.r	.
!	!	!	!	!	!	!LO:DY:a	!	!	!	!	!	!	!	!	!	!	!	!	!	!	!	!	!	!	!	!	!	!	!	!	!	!	!	!	!
.	.	.	8c\	p	8g-X/	<	.	8a\ 8cc	.	.	.	.	.	.	.	.	.	.	.	.	.	.	.	.	.	.	.	.	.	.	.	.	.	.	.
*	*	*	*tremolo	*	*	*	*	*	*	*	*	*	*	*	*	*	*	*	*	*	*	*	*	*	*	*	*	*	*	*	*	*	*	*	*
4r	.	.	8c\L	.	8g-/L	[[	.	8a\ 8ccL	.	.	.	.	.	.	.	.	.	.	.	.	.	.	.	.	.	.	.	.	.	.	.	.	.	.	.
.	.	.	8c\	.	8g-/	.	16aa/LL	8a\ 8cc	.	.	.	.	.	.	.	.	.	.	16aa\LL	-ste	.	.	.	.	.	.	.	.	.	.	.	.	.	.	.
.	.	.	.	.	.	.	16gg/JJ	.	.	.	.	.	.	.	.	.	.	.	16gg\JJ	.	.	.	.	.	.	.	.	.	.	.	.	.	.	.	.
4D\	7 5 #3	.	8c\	.	8g-/	.	16ff#X/LL	8a\ 8cc	.	.	.	.	.	.	.	.	.	.	(16ff#X\LL	e-	.	.	.	.	.	.	.	.	.	.	.	.	.	.	.
.	.	.	.	.	.	.	16gg/	.	.	.	.	.	.	.	.	.	.	.	16gg\)	.	.	.	.	.	.	.	.	.	.	.	.	.	.	.	.
.	.	.	8c\J	.	8g-/J	.	16aa/	8a\ 8ccJ	.	.	.	.	.	.	.	.	.	.	(16aa\	-lej-	.	.	.	.	.	.	.	.	.	.	.	.	.	.	.
!	!	!	!	!	!	!	!	!	!	!	!	!	!	!	!	!	!	!	!LO:SIC:s=16ff#	!	!	!	!	!	!	!	!	!	!	!	!	!	!	!	!
.	.	.	.	.	.	.	16ff#/JJ	.	.	.	.	.	.	.	.	.	.	.	16gg-X\JJ)	.	.	.	.	.	.	.	.	.	.	.	.	.	.	.	.
!	!	!	!	!	!	!	!	!	!	!	!	!	!	!	!	!	!	!	!LO:LB:g=original	!	!	!	!	!	!	!	!	!	!	!	!	!	!	!	!
=19	=19	=19	=19	=19	=19	=19	=19	=19	=19	=19	=19	=19	=19	=19	=19	=19	=19	=19	=19	=19	=19	=19	=19	=19	=19	=19	=19	=19	=19	=19	=19	=19	=19	=19	=19
*	*	*	*^	*	*	*	*	*	*	*	*	*	*	*	*	*	*	*	*	*	*	*	*	*	*	*	*	*	*	*	*	*	*	*	*
4G\	-3	.	8r	8ryy	.	8r	.	4gg/	8r	.	2.r	.	.	2.r	.	.	4r	.	.	4ggn\	-son	.	2.r	.	2.r	.	2.r	.	4E-\	.	2.r	.	2.r	.	2.r	.
!	!	!	!	!	!	!	!LO:DY:a	!	!	!	!	!	!	!	!	!	!	!	!	!	!	!	!	!	!	!	!	!	!	!	!	!	!	!	!	!
.	.	.	8B-\	8ryy	.	8e-/	<	.	8b-/	.	.	.	.	.	.	.	.	.	.	.	.	.	.	.	.	.	.	.	.	.	.	.	.	.	.	.
!	!	!	!LO:TX:a:t=Canto	!	!	!	!	!	!	!	!	!	!	!	!	!	!LO:TX:a:t=Solo	!	!	!	!	!	!	!	!	!	!	!	!	!	!	!	!	!	!	!
!	!	!	!	!	!	!	!	!	!	!	!	!	!	!	!	!	!	!	!LO:DY:b:t=for.	!	!	!	!	!	!	!	!	!	!	!	!	!	!	!	!	!
4r	.	.	4d/	8B-\L	.	8e-/L	[[	4dd/	8b-/L	.	.	.	.	.	.	.	4b-\	Chri-	f	4r	.	.	.	.	.	.	.	.	4r	.	.	.	.	.	.	.
.	.	.	.	8B-\	.	8e-/	.	.	8b-/	.	.	.	.	.	.	.	.	.	.	.	.	.	.	.	.	.	.	.	.	.	.	.	.	.	.	.
4r	.	.	4d/	8B-\	.	8e-/	.	4dd/	8b-/	.	.	.	.	.	.	.	4b-\	-ste	.	4r	.	.	.	.	.	.	.	.	4r	.	.	.	.	.	.	.
.	.	.	.	8B-\J	.	8e-/J	.	.	8b-/J	.	.	.	.	.	.	.	.	.	.	.	.	.	.	.	.	.	.	.	.	.	.	.	.	.	.	.
!	!	!	!LO:LB:g=original	!	!	!LO:LB:g=original	!	!	!	!	!	!	!	!	!	!	!	!	!	!	!	!	!	!	!	!	!	!	!	!	!	!	!	!	!	!
=20	=20	=20	=20	=20	=20	=20	=20	=20	=20	=20	=20	=20	=20	=20	=20	=20	=20	=20	=20	=20	=20	=20	=20	=20	=20	=20	=20	=20	=20	=20	=20	=20	=20	=20	=20	=20
!	!	!	!	!	!	!	!	!	!	!	!	!	!	!	!	!	!	!	!	!LO:TX:a:t=3	!	!	!	!	!	!	!	!	!	!	!	!	!	!	!	!
.	.	.	8qd/	.	.	.	.	8qdd/	.	.	.	.	.	.	.	.	.	.	.	.	.	.	.	.	.	.	.	.	.	.	.	.	.	.	.	.
4D\	7 5	.	4.b-/	8r	.	8r	.	4.bb-/	8r	.	2.r	.	.	2.r	.	.	(4.ee-\	Chri-	.	2.r	.	.	2.r	.	2.r	.	2.r	.	2.r	.	2.r	.	2.r	.	2.r	.
!	!	!	!	!	!	!	!LO:DY:a	!	!	!	!	!	!	!	!	!	!	!	!	!	!	!	!	!	!	!	!	!	!	!	!	!	!	!	!	!
.	.	.	.	8A/	.	8d/	<	.	8f#X/ 8a	.	.	.	.	.	.	.	.	.	.	.	.	.	.	.	.	.	.	.	.	.	.	.	.	.	.	.
4r	.	.	.	8A/L	.	8d/L	[[	.	8f#/ 8aL	.	.	.	.	.	.	.	.	.	.	.	.	.	.	.	.	.	.	.	.	.	.	.	.	.	.	.
.	.	.	16a/LL	8A/	.	8d/	.	16aa/LL	8f#/ 8a	.	.	.	.	.	.	.	16dd\LL	-ste	.	.	.	.	.	.	.	.	.	.	.	.	.	.	.	.	.	.
.	.	.	16g/JJ	.	.	.	.	16gg/JJ	.	.	.	.	.	.	.	.	16cc\JJ)	.	.	.	.	.	.	.	.	.	.	.	.	.	.	.	.	.	.	.
4r	.	.	16f#X/LL	8A/	.	8d/	.	16ff#X/LL	8f#/ 8a	.	.	.	.	.	.	.	(16b-\LL	e-	.	.	.	.	.	.	.	.	.	.	.	.	.	.	.	.	.	.
.	.	.	16g/	.	.	.	.	16gg/	.	.	.	.	.	.	.	.	16a\	.	.	.	.	.	.	.	.	.	.	.	.	.	.	.	.	.	.	.
.	.	.	16a/	8A/J	.	8d/J	.	16aa/	8f#/ 8aJ	.	.	.	.	.	.	.	16g\	-lej-	.	.	.	.	.	.	.	.	.	.	.	.	.	.	.	.	.	.
!	!	!	!	!	!	!	!	!	!	!	!	!	!	!	!	!	!LO:SIC:s=16ff#	!	!	!	!	!	!	!	!	!	!	!	!	!	!	!	!	!	!	!
.	.	.	16f#/JJ	.	.	.	.	16ff#X/JJ	.	.	.	.	.	.	.	.	16g-X\JJ)	.	.	.	.	.	.	.	.	.	.	.	.	.	.	.	.	.	.	.
=21	=21	=21	=21	=21	=21	=21	=21	=21	=21	=21	=21	=21	=21	=21	=21	=21	=21	=21	=21	=21	=21	=21	=21	=21	=21	=21	=21	=21	=21	=21	=21	=21	=21	=21	=21	=21
4E-\	5 3	.	4g/	8r	.	8r	.	4gg/	8r	.	2.r	.	.	4r	.	.	4gn\	-son	.	2.r	.	.	2.r	.	2.r	.	2.r	.	4E-\	.	2.r	.	2.r	.	2.r	.
!	!	!	!	!	!	!	!LO:DY:a	!	!	!	!	!	!	!	!	!	!	!	!	!	!	!	!	!	!	!	!	!	!	!	!	!	!	!	!	!
.	.	.	.	8G/	.	8e-/	<	.	8g/	.	.	.	.	.	.	.	.	.	.	.	.	.	.	.	.	.	.	.	.	.	.	.	.	.	.	.
!	!	!	!	!	!	!	!	!	!	!	!	!	!	!	!	!LO:DY:b:t=p.	!	!	!	!	!	!	!	!	!	!	!	!	!	!	!	!	!	!	!	!
4EE-/	.	.	4ryy	8G/L	.	8e-/L	[[	4ryy	8g/L	.	.	.	.	4g\	Chri-	p	4r	.	.	.	.	.	.	.	.	.	.	.	4r	.	.	.	.	.	.	.
.	.	.	.	8G/	.	8e-/	.	.	8g/	.	.	.	.	.	.	.	.	.	.	.	.	.	.	.	.	.	.	.	.	.	.	.	.	.	.	.
4r	.	.	4ryy	8G/	.	8e-/	.	4ryy	8g/	.	.	.	.	4g\	-ste	.	4r	.	.	.	.	.	.	.	.	.	.	.	4r	.	.	.	.	.	.	.
.	.	.	.	8G/J	.	8e-/J	.	.	8g/J	.	.	.	.	.	.	.	.	.	.	.	.	.	.	.	.	.	.	.	.	.	.	.	.	.	.	.
*	*	*	*v	*v	*	*	*	*v	*v	*	*	*	*	*	*	*	*	*	*	*	*	*	*	*	*	*	*	*	*	*	*	*	*	*	*	*
=22	=22	=22	=22	=22	=22	=22	=22	=22	=22	=22	=22	=22	=22	=22	=22	=22	=22	=22	=22	=22	=22	=22	=22	=22	=22	=22	=22	=22	=22	=22	=22	=22	=22	=22
!	!	!	!	!	!	!	!	!	!	!	!	!	!	!	!LO:TX:a:t=1.	!	!	!	!	!	!	!	!	!	!	!	!	!	!	!	!	!	!	!
4BB-/	5 3	.	8r	.	8r	.	8r	.	2.r	.	.	4.fT\	Chri-	.	2.r	.	.	2.r	.	.	2.r	.	2.r	.	2.r	.	2.r	.	2.r	.	2.r	.	2.r	.
!	!	!	!	!	!LO:N:vis=4	!LO:DY:a	!	!	!	!	!	!	!	!	!	!	!	!	!	!	!	!	!	!	!	!	!	!	!	!	!	!	!	!
.	.	.	8F/	.	8B-/ 8d	<	8d/ 8f	.	.	.	.	.	.	.	.	.	.	.	.	.	.	.	.	.	.	.	.	.	.	.	.	.	.	.
4r	.	.	8F/L	.	8B-/ 8dL	[[	8d/ 8fL	.	.	.	.	.	.	.	.	.	.	.	.	.	.	.	.	.	.	.	.	.	.	.	.	.	.	.
.	.	.	8F/	.	8B-/ 8d	.	8d/ 8f	.	.	.	.	(16g\LL	-ste	.	.	.	.	.	.	.	.	.	.	.	.	.	.	.	.	.	.	.	.	.
!	!	!	!	!	!	!	!	!	!	!	!	!	!	!	!	!	!	!	!	!	!	!	!	!	!	!	!	!	!	!	!	!	!	!
.	.	.	.	.	.	.	.	.	.	.	.	16f\JJ)	.	.	.	.	.	.	.	.	.	.	.	.	.	.	.	.	.	.	.	.	.	.
4r	.	.	8F/	.	8B-/ 8d	.	8d/ 8f	.	.	.	.	(16e-X\LL	e-	.	.	.	.	.	.	.	.	.	.	.	.	.	.	.	.	.	.	.	.	.
.	.	.	.	.	.	.	.	.	.	.	.	16d\	.	.	.	.	.	.	.	.	.	.	.	.	.	.	.	.	.	.	.	.	.	.
.	.	.	8F/J	.	8B-/ 8dJ	.	8d/ 8fJ	.	.	.	.	16c\	-lej-	.	.	.	.	.	.	.	.	.	.	.	.	.	.	.	.	.	.	.	.	.
.	.	.	.	.	.	.	.	.	.	.	.	16B-\JJ)	.	.	.	.	.	.	.	.	.	.	.	.	.	.	.	.	.	.	.	.	.	.
*	*	*	*Xtremolo	*	*	*	*	*	*	*	*	*	*	*	*	*	*	*	*	*	*	*	*	*	*	*	*	*	*	*	*	*	*	*
!	!	!	!	!	!	!	!	!	!	!	!	!LO:LB:g=original	!	!	!LO:LB:g=original	!	!	!	!	!	!	!	!	!	!	!	!	!	!	!	!	!	!	!
=23	=23	=23	=23	=23	=23	=23	=23	=23	=23	=23	=23	=23	=23	=23	=23	=23	=23	=23	=23	=23	=23	=23	=23	=23	=23	=23	=23	=23	=23	=23	=23	=23	=23	=23
!	!	!	!	!	!	!LO:DY:b:t=for	!	!	!	!	!	!	!	!	!	!	!	!	!	!	!	!	!	!	!	!	!	!	!	!	!	!	!	!
!	!	!	!	!	!	!	!	!	!	!	!	!	!	!LO:DY:b:t=fo	!	!	!	!	!	!	!	!	!	!	!	!	!	!	!	!	!	!	!	!
4r	.	.	4r	.	4A/	f <	4f/	.	4r	.	.	4A\	-son	f	4r	.	.	4r	.	.	4r	.	4r	.	4r	.	4r	.	4r	.	4r	.	4r	.
!	!	!	!	!	!	!	!	!	!	!	!	!	!	!	!	!	!LO:DY:b:t=for	!	!	!LO:DY:a	!	!	!	!	!	!	!	!	!	!	!	!	!	!
!	!	!LO:DY:b:t=for	!	!LO:DY:b:t=fo	!	!	!	!	!	!	!LO:DY:b:t=for	!	!	!	!	!	!	!	!	!	!	!	!	!	!	!	!	!	!	!	!	!	!	!LO:DY:a
4F\	7 5	f	4f\	f	4e-/ 4a	.	4f\ 4ee-	f	4F\	Chri-	f <	4c\	Chri-	.	4a\	Chri-	f	4ee-\	Chri-	>	4FF/	.	4f/	p	4cc\	p	4F^\	rfz	4cc^\	.	4ee-\	f	4eee-\	>
!	!	!	!LO:SIC:s=4B	!	!	!	!	!	!	!	!	!	!	!	!	!	!	!	!	!	!	!	!	!	!	!	!	!	!	!	!	!	!	!
4C/	3	.	4c\	.	4d/ 4b-	[[	4f\ 4dd	.	4B-\	-ste	[[	4B-\	-ste	.	4f\	-ste	.	4dd\	-ste	]]	4BB-/	.	4b-\	.	4dd\	.	4B-\	.	4b-\	.	4dd\	.	4ddd\	]]
!	!	!	!	!	!	!	!LO:LB:g=original	!	!	!	!	!	!	!	!	!	!	!	!	!	!	!	!	!	!	!	!	!	!	!	!	!	!	!
=24	=24	=24	=24	=24	=24	=24	=24	=24	=24	=24	=24	=24	=24	=24	=24	=24	=24	=24	=24	=24	=24	=24	=24	=24	=24	=24	=24	=24	=24	=24	=24	=24	=24	=24
4r	.	.	4r	.	4r	.	4r	.	4r	.	.	4r	.	.	4r	.	.	4r	.	.	4r	.	4r	.	4r	.	4r	.	4r	.	4r	.	4r	.
!	!	!	!	!	!	!	!	!	!	!	!	!	!	!	!	!	!	!	!	!	!	!	!	!	!	!	!	!	!	!LO:DY:a	!	!	!	!
!	!	!	!	!	!	!LO:DY:a	!	!	!	!	!LO:DY:a	!	!	!LO:DY:a	!	!	!LO:DY:a	!	!	!LO:DY:a	!	!	!	!	!	!	!	!	!	!LO:DY:a	!	!	!	!
*	*	*	*	*	*	*	*	*	*	*ij	*	*	*ij	*	*	*	*	*	*ij	*	*	*	*	*	*	*	*	*	*	*	*	*	*	*
4D-X\	#3	.	4d-X\	.	4dd-X\	<	4een\	.	4G\	Chri-	>	4d-X\	Chri-	<	4b-\	Chri-	<	4een\	Chri-	<	4BB-/	.	4B-/	.	4b-\	.	4F#X^\	rfz	4cc#X\	> >	4ff-X\	.	4ccc#X\	>
!	!	!	!	!	!	!	!	!	!	!	!	!	!	!	!	!	!	!	!	!	!	!	!	!	!	!	!	!	!	!	!	!	!	!
4Dn\	3	.	4dn\	.	4ddn\	[[	4ff\	.	4F\	-ste	]]	4dn\	-ste	[[	4b-\	-ste	[[	4ff\	-ste	[[	4BB-/	.	4B-/	.	4b-\	.	4G\	.	4dd\	]]	4ff\	.	4ddd\	]]
*	*	*	*	*	*	*	*	*	*	*Xij	*	*	*Xij	*	*	*	*	*	*Xij	*	*Xtremolo	*	*	*	*	*	*	*	*	*	*	*	*	*
!	!	!	!	!	!	!	!	!	!	!	!	!	!	!	!	!	!	!	!	!	!	!	!	!	!	!	!LO:LB:g=original	!	!	!	!	!	!	!
=25	=25	=25	=25	=25	=25	=25	=25	=25	=25	=25	=25	=25	=25	=25	=25	=25	=25	=25	=25	=25	=25	=25	=25	=25	=25	=25	=25	=25	=25	=25	=25	=25	=25	=25
!	!	!	!	!	!	!	!	!	!	!	!LO:DY:a	!	!	!LO:DY:b	!	!	!LO:DY:b	!	!	!LO:DY:a	!	!	!	!	!	!	!	!LO:DY:a	!	!	!	!	!	!
!	!	!	!	!	!	!	!	!	!	!	!	!	!	!	!	!	!	!	!	!	!	!LO:DY:b:t=fo	!	!	!	!	!	!	!	!	!	!	!	!
8E-\L	.	.	8e-\L	.	4g^/ 4ee-	.	8b-\L 8gg	f	2E-\	e-	<	2e-\	e-	rf >	2b-\	e-	>	2gg\	e-	>	8FF/L	f	8d/L	f	8b-\L	f	(8e-\L	>	4ee-\	]	4gg\	.	(2eee-\	.
!	!	!	!	!	!	!	!	!	!	!	!	!	!	!	!	!	!	!	!	!	!	!	!	!	!	!	!	!	!	!	!	!	!	!
8F\	.	.	8f\	.	.	.	16ee-\L	.	.	.	.	.	.	.	.	.	.	.	.	.	16FF/L	.	16d/L	.	16b-\L	.	8c\	.	.	.	.	.	.	.
.	.	.	.	.	.	.	16cc\JJ	.	.	.	.	.	.	.	.	.	.	.	.	.	16FF/JJ	.	16d/JJ	.	16b-\JJ	.	.	.	.	.	.	.	.	.
!	!	!	!	!	!	!	!	!LO:DY:a	!	!	!	!	!	!	!	!	!	!	!	!	!	!	!	!	!	!	!	!	!	!	!	!	!	!
8A\	3_	.	8a\	.	8r	.	16a/LL	>	.	.	.	.	.	.	.	.	.	.	.	.	8FF/L	.	8d/L	.	8b-\L	.	8A\	.	4r	.	4r	.	.	.
.	.	.	.	.	.	.	16f/	.	.	.	.	.	.	.	.	.	.	.	.	.	.	.	.	.	.	.	.	.	.	.	.	.	.	.
!	!	!	!	!	!	!LO:DY:a	!	!	!	!	!	!	!	!	!	!	!	!	!	!	!	!	!	!	!	!	!	!	!	!	!	!	!	!
*	*	*	*	*	*Xtremolo	*	*	*	*	*	*	*	*	*	*	*	*	*	*	*	*	*	*	*	*	*	*	*	*	*	*	*	*	*
8c\	.	.	8cc\	.	8c/L 8e-	<	16e-/	.	.	.	.	.	.	.	.	.	.	.	.	.	8FF/	.	8d/	.	8b-\	.	8F\	.	.	.	.	.	.	.
.	.	.	.	.	.	.	16c/JJ	.	.	.	.	.	.	]]	.	.	]]	.	.	.	.	.	.	.	.	.	.	.	.	.	.	.	.	.
8e-\	4 2	.	8ee-\	.	8c/ 8e-	.	16A/LL	]	4F\	-lej-	[[	4f\	-lej-	.	4e-\	-lej-	.	4a\	-lej-	]	8BB-/	.	8f/	.	8cc\	.	8E-\	.	4e-/	.	4a\	.	4fff\)	.
.	.	.	.	.	.	.	16c/	.	.	.	.	.	.	.	.	.	.	.	.	.	.	.	.	.	.	.	.	.	.	.	.	.	.	.
8A\J	4 2	.	8a\J	.	8c/J 8e-	[[	16f/	.	.	.	.	.	.	.	.	.	.	.	.	.	8BB-/J	.	8f/J	.	8cc\J	.	8C\J)	]]	.	.	.	.	.	.
.	.	.	.	.	.	.	16A/JJ	.	.	.	.	.	.	.	.	.	.	.	.	.	.	.	.	.	.	.	.	.	.	.	.	.	.	.
!	!	!	!	!	!	!	!	!	!LO:LB:g=original	!	!	!	!	!	!	!	!	!	!	!	!	!	!	!	!	!	!	!	!	!	!	!	!LO:LB:g=original	!
*	*	*	*	*	*tremolo	*	*	*	*	*	*	*	*	*	*	*	*	*	*	*	*	*	*	*	*	*	*	*	*	*	*	*	*	*
=26	=26	=26	=26	=26	=26	=26	=26	=26	=26	=26	=26	=26	=26	=26	=26	=26	=26	=26	=26	=26	=26	=26	=26	=26	=26	=26	=26	=26	=26	=26	=26	=26	=26	=26
!	!	!	!	!	!	!LO:DY:a	!LO:TX:t=P:problem:mixed beam	!	!	!	!	!	!	!	!	!	!	!	!	!LO:DY:a	!	!	!	!	!	!	!	!	!	!	!	!	!	!
4B-\	.	.	4b-\	.	8d/L 8f	<	8B-/L	.	4D\	-son	.	4d\	-son	.	4f\	-son	.	4b-\	-son	<	4FF/	.	4d/	.	4b-\	.	4BB-/	.	4d/	.	4b-\	.	4ddd\	.
.	.	.	.	.	8g/J	.	8b-/J	p	.	.	.	.	.	.	.	.	.	.	.	.	.	.	.	.	.	.	.	.	.	.	.	.	.	.
4r	.	.	4r	.	8g/L	[[	8b-\L	.	4r	.	.	4r	.	.	4r	.	.	4dd\	Chri-	.	4r	.	4r	.	4r	.	4r	.	4r	.	4r	.	4r	.
.	.	.	.	.	8g/	.	8b-\	.	.	.	.	.	.	.	.	.	.	.	.	.	.	.	.	.	.	.	.	.	.	.	.	.	.	.
4r	.	.	4r	.	8g/	.	8b-\	.	4r	.	.	4r	.	.	4r	.	.	4dd\	-ste	[	4r	.	4r	.	4r	.	4r	.	4r	.	4r	.	4r	.
.	.	.	.	.	8g/J	.	8b-\J	.	.	.	.	.	.	.	.	.	.	.	.	.	.	.	.	.	.	.	.	.	.	.	.	.	.	.
!LO:LB:g=original	!	!	!	!	!LO:LB:g=original	!	!	!	!	!	!	!	!	!	!	!	!	!	!	!	!	!	!	!	!	!	!	!	!	!	!	!	!	!
=27	=27	=27	=27	=27	=27	=27	=27	=27	=27	=27	=27	=27	=27	=27	=27	=27	=27	=27	=27	=27	=27	=27	=27	=27	=27	=27	=27	=27	=27	=27	=27	=27	=27	=27
!	!	!	!	!	!	!	!	!	!LO:TX:a:t=1	!	!	!LO:TX:a:t=1	!	!	!LO:TX:a:t=1.	!	!	!	!	!	!LO:TX:a:t=1	!	!LO:TX:a:t=1	!	!	!	!	!	!	!	!	!	!	!
!	!	!	!	!	!	!	!	!	!	!	!	!	!	!	!	!	!	!	!	!	!	!	!	!	!	!	!	!	!	!	!	!	!	!
.	.	.	.	.	.	.	8qdd/	.	.	.	.	.	.	.	.	.	.	8qdd/	.	.	.	.	.	.	.	.	.	.	.	.	.	.	.	.
*	*	*	*^	*	*	*	*^	*	*	*	*	*	*	*	*	*	*	*	*	*	*	*	*	*	*	*	*	*	*	*	*	*	*	*
!	!	!	!	!	!	!	!	!	!	!	!	!	!	!	!	!	!	!	!	!	!	!	!	!	!	!LO:DY:t=Cres	!	!	!	!	!	!	!	!	!	!
4G\	5 4	.	4.b-/	4g\	.	8r	.	4.bb-/	8r	.	2.r	.	.	2.r	.	.	2.r	.	.	4.bb-\	Chri-	.	2.r	.	2.r	<	2.r	.	4D\	.	2.r	.	2.r	.	2.r	.
!	!	!	!	!	!	!	!	!	!	!	!	!	!	!	!	!	!	!	!	!	!	!	!	!	!	!	!	!	!	!	!	!	!	!	!	!
!	!	!	!	!	!	!	!LO:DY:b	!	!	!	!	!	!	!	!	!	!	!	!	!	!	!	!	!	!	!	!	!	!	!	!	!	!	!	!	!
.	.	.	.	.	.	8g-X/	p >	.	8a\ 8cc	.	.	.	.	.	.	.	.	.	.	.	.	.	.	.	.	.	.	.	.	.	.	.	.	.	.	.
*	*	*	*	*	*	*	*	*	*tremolo	*	*	*	*	*	*	*	*	*	*	*	*	*	*	*	*	*	*	*	*	*	*	*	*	*	*	*
!	!	!	!	!	!	!	!	!	!	!	!	!	!	!	!	!	!	!	!	!	!	!	!	!	!	!	!	!	!	!	!	!	!	!	!	!
4r	.	.	.	4r	.	8f/L	]]	.	8a\ 8ccL	.	.	.	.	.	.	.	.	.	.	.	.	.	.	.	.	.	.	.	4r	.	.	.	.	.	.	.
.	.	.	16a/LL	.	.	8f/	.	16aa/LL	8a\ 8cc	.	.	.	.	.	.	.	.	.	.	16aa\LL	-ste	.	.	.	.	.	.	.	.	.	.	.	.	.	.	.
.	.	.	16g/JJ	.	.	.	.	16gg/JJ	.	.	.	.	.	.	.	.	.	.	.	16gg\JJ	.	.	.	.	.	.	.	.	.	.	.	.	.	.	.	.
4BB-/	7 3	.	4b-\	16f#X/LL	.	8f/	.	16ff#X/LL	8a\ 8cc	.	.	.	.	.	.	.	.	.	.	16ff#X\LL	e-	.	.	.	.	.	.	.	4r	.	.	.	.	.	.	.
.	.	.	.	16g/	.	.	.	16gg/	.	.	.	.	.	.	.	.	.	.	.	16gg\	.	.	.	.	.	.	.	.	.	.	.	.	.	.	.	.
.	.	.	.	16a/	.	8f/J	.	16aa/	8a\ 8ccJ	.	.	.	.	.	.	.	.	.	.	16aa\	-lej-	.	.	.	.	.	.	.	.	.	.	.	.	.	.	.
!	!	!	!LO:SIC:s=16f#	!	!	!	!	!	!	!	!	!	!	!	!	!	!	!	!	!LO:SIC:s=16ff#	!	!	!	!	!	!	!	!	!	!	!	!	!	!	!	!
.	.	.	.	16g-X/JJ	.	.	.	16ff#/JJ	.	.	.	.	.	.	.	.	.	.	.	16gg-X\JJ	.	.	.	.	.	.	.	.	.	.	.	.	.	.	.	.
*	*	*	*	*	*	*	*	*Xtremolo	*	*	*	*	*	*	*	*	*	*	*	*	*	*	*	*	*	*	*	*	*	*	*	*	*	*	*	*
*	*	*	*v	*v	*	*	*	*	*	*	*	*	*	*	*	*	*	*	*	*	*	*	*	*	*	*	*	*	*	*	*	*	*	*	*	*
=28	=28	=28	=28	=28	=28	=28	=28	=28	=28	=28	=28	=28	=28	=28	=28	=28	=28	=28	=28	=28	=28	=28	=28	=28	=28	=28	=28	=28	=28	=28	=28	=28	=28	=28	=28
!	!	!	!	!LO:DY:b:t=fo	!	!LO:DY:b	!	!	!LO:DY:b	!	!	!	!	!	!	!	!	!	!	!	!	!	!	!	!	!	!	!	!	!	!	!	!	!	!
!	!	!	!	!	!	!	!	!	!	!	!	!	!	!	!	!	!	!	!	!	!	!	!LO:DY:t=Cres	!	!	!	!LO:DY:a:t=Cres	!	!	!	!	!	!	!	!
8G\L	3	.	8g\L	f	8e-X/	> ]	4gg/	(8g\L 8b-	rf	4r	.	.	4r	.	.	4r	.	.	4ggn\	-son	.	4r	<	4r	.	4r	<	4E-\	ff	4r	.	4r	.	4r	.
!	!	!	!	!	!	!	!	!	!LO:DY:a	!	!	!	!	!	!	!	!	!	!	!	!	!	!	!	!	!	!	!	!	!	!	!	!	!	!
8F\J	.	.	8f\J	.	4r	.	.	16gg\L	>	.	.	.	.	.	.	.	.	.	.	.	.	.	.	.	.	.	.	.	.	.	.	.	.	.	.
.	.	.	.	.	.	.	.	16ff\JJ	.	.	.	.	.	.	.	.	.	.	.	.	.	.	.	.	.	.	.	.	.	.	.	.	.	.	.
!	!	!	!	!	!	!	!	!	!	!	!	!	!	!	!	!	!	!LO:DY:b:t=ffor	!	!	!	!	!	!	!	!	!LO:DY:a	!	!	!	!	!	!	!	!
!	!	!	!	!	!	!	!	!	!	!	!	!	!	!	!LO:DY:b:t=ffo	!	!	!	!	!	!	!	!	!	!	!	!	!	!	!	!	!	!	!	!
!	!	!	!	!	!	!	!	!	!	!	!	!LO:DY:b:t=ffor	!	!	!	!	!	!	!	!	!	!	!	!	!	!	!	!	!	!	!	!	!	!	!LO:DY:b
!	!	!	!	!	!	!	!	!	!	!	!	!	!	!	!	!	!	!	!	!	!	!	!	!	!	!	!LO:DY:a	!	!	!	!	!	!	!	!
8En\	.	.	8en\	.	.	.	16een\LL	16ryy	]	8D-X\	Ky-	ff <	8en\	Ky-	ff <	8b-\	Ky-	ff	8gg\	Ky-	.	8BB-/L	<	8B-/L	<	8b-\L	<	(16En\LL	.	8r	.	8r	.	8ccc#X\	rf >
.	.	.	.	.	.	.	16ddd-X\	16ryy	.	.	.	.	.	.	.	.	.	.	.	.	.	.	.	.	.	.	.	16G\	.	.	.	.	.	.	.
*	*	*	*	*	*Xtremolo	*	*	*	*	*	*	*	*	*	*	*	*	*	*	*	*	*	*	*	*	*	*	*	*	*	*	*	*	*	*
!	!	!	!	!	!	!	!	!	!	!	!	!	!	!	!	!	!	!	!	!	!	!	!	!	!	!	!	!	!	!	!LO:DY:a	!	!	!	!
!	!	!	!	!	!	!LO:DY:b:t=for	!	!	!	!	!	!	!	!	!	!	!	!	!	!	!	!	!	!	!	!	!	!	!	!	!	!	!	!	!
16d-X\LL	6_ 4_	.	16dd-X\LL	.	8B-X/L 8en	f <	16bb-\	16ryy	.	8D-\	-ri-	.	8e\	-ri-	.	8b-\	-ri-	.	8gg\	-ri-	.	16BB-/L	.	16B-/L	.	16b-\L	.	16B-\	.	8gg\L	ff <	8bb-\L	f	8ccc#\	.
!	!	!	!	!	!	!	!	!	!LO:DY:a	!	!	!	!	!	!	!	!	!	!	!	!	!	!	!	!	!	!	!	!	!	!	!	!	!	!
16B-\J	.	.	16b-\J	.	.	.	16gg\JJ	16ryy	>	.	.	.	.	.	.	.	.	.	.	.	.	16BB-/JJ	.	16B-/JJ	.	16b-\JJ	.	16d-X\JJ	.	.	.	.	.	.	.
8G\	.	.	8g\	.	8B-/ 8e	.	16ee\LL	16ryy	.	8D-\	-e	.	8e\	-e	.	8b-\	-e	.	8gg\	-e	.	8BB-/L	.	8B-/L	.	8b-\L	.	16cn\LL	.	8gg\	.	8bb-\	.	8ccc#\	.
.	.	.	.	.	.	.	16dd-X\	16ryy	.	.	.	.	.	.	.	.	.	.	.	.	.	.	.	.	.	.	.	16Bn\	.	.	.	.	.	.	.
8E\J	.	.	8e\J	.	8B-/J 8e	[[	16b-\	16ryy	.	8D-\	e-	[[	8e\	e-	[[	8b-\	e-	.	8gg\	e-	.	8BB-/J	[[	8B-/J	[[	8b-\J	[[	16A\	.	8gg\J	[[	8bb-\J	.	8ccc#\	]]
.	.	.	.	.	.	.	16g\JJ	16r)yy	.	.	.	.	.	.	.	.	.	.	.	.	.	.	.	.	.	.	.	16B\JJ)	.	.	.	.	.	.	.
!	!	!	!LO:LB:g=original	!	!	!	!	!	!	!	!	!	!	!	!	!	!	!	!LO:LB:g=original	!	!	!	!	!	!	!	!	!	!	!	!	!	!	!	!
!	!	!	!	!	!	!	!	!	!	!	!	!	!	!	!	!	!	!	!	!	!	!LO:LB:g=original	!	!LO:LB:g=original	!	!	!	!	!	!	!	!	!	!	!
=29	=29	=29	=29	=29	=29	=29	=29	=29	=29	=29	=29	=29	=29	=29	=29	=29	=29	=29	=29	=29	=29	=29	=29	=29	=29	=29	=29	=29	=29	=29	=29	=29	=29	=29	=29
!	!	!	!LO:TX:t=P:problem:mixed beam	!	!	!	!LO:TX:t=P:problem: w systemie przeznaczinym dla smyczek dopisana partia wokalna i wydrapana/zamazana	!	!	!	!	!	!	!	!	!	!	!	!	!	!	!	!	!	!	!	!	!	!	!	!	!	!	!	!
.	.	.	.	.	.	.	8qdd/	.	]	.	.	.	.	.	.	.	.	.	.	.	.	.	.	.	.	.	.	.	.	.	.	.	.	.	.
!	!	!	!	!	!	!	!	!	!	!	!	!LO:DY:a	!	!	!	!	!	!	!	!	!LO:DY:a	!	!LO:DY:b:t=for	!	!	!	!	!	!	!	!	!	!	!	!
4F\	3	.	8f/L	.	4cn/	[	4.bb-/	4A/ 4f	.	(4D\	-lej-	<	(4d\	-lej-	.	(4b-\	-lej-	.	4ff\	-lej-	>	4FF/	f	4f/	f	4cc\	.	4A\	> ]	4ff\	> ]	4aa\	.	(4ddd\	.
.	.	.	8F/J	.	.	.	.	.	.	.	.	.	.	.	.	.	.	.	.	.	.	.	.	.	.	.	.	.	.	.	.	.	.	.	.
4r	.	.	4r	.	4r	.	.	4r	.	4F\)	.	.	4A\)	.	.	4cc\)	.	.	4ee-\	.	.	4r	.	4r	.	4r	.	4F\	.	4r	.	4r	.	4aa\)	.
.	.	.	.	.	.	.	16aa/LL	.	.	.	.	.	.	.	.	.	.	.	.	.	.	.	.	.	.	.	.	.	.	.	.	.	.	.	.
.	.	.	.	.	.	.	16gg/JJ	.	.	.	.	.	.	.	.	.	.	.	.	.	.	.	.	.	.	.	.	.	.	.	.	.	.	.	.
4r	.	.	4r	.	4r	.	16ff#X/LL	4r	.	4F\	-son	[[	4B-\	-son	.	4b-\	-son	.	4dd\	-son	]]	4r	.	4r	.	4r	.	4B-\	.	4r	.	4r	.	4bb-\	.
.	.	.	.	.	.	.	16gg/	.	.	.	.	.	.	.	.	.	.	.	.	.	.	.	.	.	.	.	.	.	.	.	.	.	.	.	.
.	.	.	.	.	.	.	16aa/	.	.	.	.	.	.	.	.	.	.	.	.	.	.	.	.	.	.	.	.	.	.	.	.	.	.	.	.
!	!	!	!	!	!	!	!LO:SIC:s=16ff#	!	!	!	!	!	!	!	!	!	!	!	!	!	!	!	!	!	!	!	!	!	!	!	!	!	!	!	!
.	.	.	.	.	.	.	16gg-X/JJ	.	.	.	.	.	.	.	.	.	.	.	.	.	.	.	.	.	.	.	.	.	.	.	.	.	.	.	.
*	*	*	*	*	*	*	*v	*v	*	*	*	*	*	*	*	*	*	*	*	*	*	*	*	*	*	*	*	*	*	*	*	*	*	*	*
!	!	!	!	!	!	!	!	!	!	!	!	!	!LO:LB:g=original	!	!	!	!	!	!	!	!	!	!	!	!	!	!	!	!	!	!LO:LB:g=original	!	!	!
=30	=30	=30	=30	=30	=30	=30	=30	=30	=30	=30	=30	=30	=30	=30	=30	=30	=30	=30	=30	=30	=30	=30	=30	=30	=30	=30	=30	=30	=30	=30	=30	=30	=30	=30
!	!	!	!	!	!	!LO:DY:b:t=fo	!	!	!	!	!LO:DY:a	!	!	!	!	!LO:DY:b	!	!	!	!	!LO:TX:a:t=9	!	!LO:TX:a:t=9	!	!LO:TX:a:t=9	!	!	!	!	!	!	!	!	!
4E-\	6 3	.	4e-\	.	4G^/ 4e-	f	4b-\ 4gg	.	2E-\	e-	<	2e-\	e-	>	2b-\	e-	>	2gg^\	e-	.	2.r	.	2.r	.	2.r	.	4E-X\	.	4ee-^\	.	4gg\	.	2eee-\	.
4r	.	.	4r	.	4r	.	4r	.	.	.	.	.	.	.	.	.	.	.	.	.	.	.	.	.	.	.	4r	.	4r	.	4r	.	.	.
.	.	.	.	.	.	.	.	.	.	.	.	.	.	.	.	.	.	16qqee-/LL	.	.	.	.	.	.	.	.	.	.	.	.	.	.	.	.
!	!	!	!	!	!	!	!	!	!L!	!	!	!	!	!	!	!	!	!	!	!	!	!	!	!	!	!	!	!	!	!	!	!	!	!
.	.	.	.	.	.	.	.	.	.	.	.	.	.	]]	.	.	]]	16qqcc/JJ	.	.	.	.	.	.	.	.	.	.	.	.	.	.	.	.
!	!	!	!	!	!	!	!	!	!	!	!	!	!	!	!	!	!	!	!	!	!	!	!	!	!	!	!	!	!	!LO:DY:a	!	!	!	!
4F\	7 2	.	4f\	.	4c^/ 4e-	.	4f/ 4a	.	4F\	-lej-	[[	4f\	-lej-	.	4e-\	-lej-	.	4a\	-lej-	.	.	.	.	.	.	.	4F\	.	4e-/	<[	4a^\	.	4fff\	.
!	!	!	!	!	!	!	!	!	!	!	!	!	!	!	!LO:LB:g=original	!	!	!	!	!	!	!	!	!	!	!	!	!	!	!	!	!	!	!
!	!	!	!	!	!	!	!	!	!	!	!	!	!	!	!	!	!	!	!	!	!	!	!	!	!	!	!	!	!LO:LB:g=original	!	!	!	!	!
=31	=31	=31	=31	=31	=31	=31	=31	=31	=31	=31	=31	=31	=31	=31	=31	=31	=31	=31	=31	=31	=31	=31	=31	=31	=31	=31	=31	=31	=31	=31	=31	=31	=31	=31
!	!	!	!	!	!	!LO:DY:a	!LO:TX:t=P:problem:mixed beam	!	!	!	!	!	!	!	!	!	!	!	!	!	!	!	!	!	!	!	!	!	!	!	!	!	!	!
4BB-/	.	p	4b-\	.	8d/L 8b-	<	(16d\LL 16b-	.	4BB-/	-son	.	4d\	-son	.	4f\	-son	.	4b-\	-son	.	2.r	.	2.r	.	2.r	.	4BB-/	.	4d/	.	4b-\	.	4ddd\	.
!	!	!	!	!	!	!	!	!	!	!	!	!	!	!	!	!	!	!	!	!	!	!	!	!	!	!	!	!	!	!	!	!	!	!
.	.	.	.	.	.	.	16bb-'\	.	.	.	.	.	.	.	.	.	.	.	.	.	.	.	.	.	.	.	.	.	.	.	.	.	.	.
.	.	.	.	.	8B-/J 8d	.	16ddd'\	.	.	.	.	.	.	.	.	.	.	.	.	.	.	.	.	.	.	.	.	.	.	.	.	.	.	.
.	.	.	.	.	.	.	16ccc'\JJ	.	.	.	.	.	.	.	.	.	.	.	.	.	.	.	.	.	.	.	.	.	.	.	.	.	.	.
!	!	!	!	!	!	!	!	!LO:DY:a	!	!	!	!	!	!	!	!	!LO:DY:b:t=p.	!	!	!LO:DY:a	!	!	!	!	!	!	!	!	!	!	!	!	!	!
*	*	*	*	*	*tremolo	*	*	*	*	*	*	*	*	*	*	*	*	*	*	*	*	*	*	*	*	*	*	*	*	*	*	*	*	*
4D^/	.	.	4dd\	.	8B-/ 8dL	[	16bb-'\LL	>	4r	.	.	4r	.	.	4b-\	Chri-	p	4dd^\	Chri-	<	.	.	.	.	.	.	4r	.	4r	.	4r	.	4r	.
.	.	.	.	.	.	.	16aa'\	.	.	.	.	.	.	.	.	.	.	.	.	.	.	.	.	.	.	.	.	.	.	.	.	.	.	.
.	.	.	.	.	8B-/ 8d	.	16gg'\	.	.	.	.	.	.	.	.	.	.	.	.	.	.	.	.	.	.	.	.	.	.	.	.	.	.	.
.	.	.	.	.	.	.	16ff'\JJ	.	.	.	.	.	.	.	.	.	.	.	.	.	.	.	.	.	.	.	.	.	.	.	.	.	.	.
4BB-/	.	.	4b-\	.	8B-/ 8d	.	16ee-'\LL	.	4r	.	.	4r	.	.	8b-\	-ste	.	8dd\	-ste	.	.	.	.	.	.	.	4r	.	4r	.	4r	.	4r	.
.	.	.	.	.	.	.	16dd'\	.	.	.	.	.	.	.	.	.	.	.	.	.	.	.	.	.	.	.	.	.	.	.	.	.	.	.
.	.	.	.	.	8B-/ 8dJ	.	16cc'\	.	.	.	.	.	.	.	8b-\	e-	.	8dd\	e-	[[	.	.	.	.	.	.	.	.	.	.	.	.	.	.
.	.	.	.	.	.	.	16b-'\JJ)	]]	.	.	.	.	.	.	.	.	.	.	.	.	.	.	.	.	.	.	.	.	.	.	.	.	.	.
=32	=32	=32	=32	=32	=32	=32	=32	=32	=32	=32	=32	=32	=32	=32	=32	=32	=32	=32	=32	=32	=32	=32	=32	=32	=32	=32	=32	=32	=32	=32	=32	=32	=32	=32
!	!	!	!	!	!	!	!	!LO:DY:a	!	!	!	!	!	!	!	!	!	!	!	!	!	!	!	!	!	!	!	!	!	!	!	!LO:DY:a	!LO:TX:a:t=Dolce	!
!	!	!	!	!	!	!	!	!	!	!	!LO:DY:b:t=p.	!	!	!LO:DY:b:t=p.	!	!	!	!	!	!	!	!	!	!	!	!	!	!	!	!	!	!	!	!
4F\	.	.	4f\	.	8c/ 8e-L	p	(8.a\L	<	8.c\	Ky-	p >	8..e-\	Ky-	p <	4cc\	-lej-	.	4ee-\	-lej-	.	2.r	.	2.r	.	2.r	.	4F\	f	4r	.	(16a\LL	<	(16aa\LL	.
.	.	.	.	.	.	.	.	.	.	.	.	.	.	.	.	.	.	.	.	.	.	.	.	.	.	.	.	.	.	.	16cc\)	.	16ccc\	.
.	.	.	.	.	8c/ 8e-	.	.	.	.	.	.	.	.	.	.	.	.	.	.	.	.	.	.	.	.	.	.	.	.	.	16ee-'\	.	16eee-\	.
!	!	!	!	!	!	!	!	!	!	!	!	!	!	!	!	!	!	!	!	!	!	!	!	!	!	!	!	!	!	!	!	!	!	!
.	.	.	.	.	.	.	32cc\LL	.	16c\	-ri-	.	.	.	.	.	.	.	.	.	.	.	.	.	.	.	.	.	.	.	.	16dd'\JJ	.	16ddd\JJ	.
!	!	!	!	!	!	!	!	!	!	!	!	!	!	!	!	!	!	!	!	!	!	!	!	!	!	!	!	!	!	!	!	!	!	!
.	.	.	.	.	.	.	32dd\JJJ	.	.	.	.	32e-\	-ri-	.	.	.	.	.	.	.	.	.	.	.	.	.	.	.	.	.	.	.	.	.
!	!	!	!	!	!	!	!	!	!	!	!	!	!	!	!	!	!	!	!	!	!	!	!	!	!	!	!	!	!	!	!	!LO:DY:a	!	!
4FF/	.	.	4F/	.	8c/ 8e-	.	8gg-X^\	[ rf	8c\	-e	]	8e-\	-e	.	4cc\	-son	.	4ee-\	-son	.	.	.	.	.	.	.	4A\	.	4r	.	(16cc\LL	[ >	16ccc\LL	.
.	.	.	.	.	.	.	.	.	.	.	.	.	.	.	.	.	.	.	.	.	.	.	.	.	.	.	.	.	.	.	16b-\)	.	16bb-\	.
!	!	!	!	!	!	!	!LO:N:vis=4..	!LO:DY:a	!	!	!LO:DY:a	!	!	!	!	!	!	!	!	!	!	!	!	!	!	!	!	!	!	!	!	!	!	!
!	!	!	!	!	!	!	!	!LO:DY:a	!	!	!	!	!	!	!	!	!	!	!	!	!	!	!	!	!	!	!	!	!	!	!	!	!	!
.	.	.	.	.	8c/ 8e-	.	[4ff\	>	16c\	Ky-	<	16e-\	Ky-	.	.	.	.	.	.	.	.	.	.	.	.	.	.	.	.	.	16a'\	.	16aa\	.
.	.	.	.	.	.	.	.	.	16c\	-ri-	.	16e-\	-ri-	.	.	.	.	.	.	.	.	.	.	.	.	.	.	.	.	.	16g'\JJ	.	16gg\JJ	.
!	!	!	!	!	!	!	!	!	!	!	!	!	!	!	!	!	!	!	!	!	!	!	!	!	!	!	!	!	!	!LO:DY:a	!	!	!	!
4r	.	.	4r	.	8c/ 8e-	.	.	.	8c\	-e	.	8e-\	-e	.	4r	.	.	4r	.	.	.	.	.	.	.	.	4F\	.	4e-/	>	16f/LL	.	16ff\LL	.
.	.	.	.	.	.	.	.	.	.	.	.	.	.	.	.	.	.	.	.	.	.	.	.	.	.	.	.	.	.	.	16e-/	.	16ee-\	.
.	.	.	.	.	8c/ 8e-J	.	16ff\]yy	.	8c\	e-	[[	8e-\	e-	[[	.	.	.	.	.	.	.	.	.	.	.	.	.	.	.	.	16d/	.	16dd\	.
.	.	.	.	.	.	.	16a/)	]]	.	.	.	.	.	.	.	.	.	.	.	.	.	.	.	.	.	.	.	.	.	.	16c/JJ	]]	16cc\JJ)	.
!	!	!	!	!	!	!	!	!	!LO:LB:g=original	!	!	!	!	!	!	!	!	!	!	!	!	!	!	!	!	!	!	!	!	!	!	!	!	!
!	!	!	!	!	!	!	!	!	!	!	!	!	!	!	!	!	!	!	!	!	!	!	!	!	!	!	!LO:LB:g=original	!	!	!	!	!	!	!
=33	=33	=33	=33	=33	=33	=33	=33	=33	=33	=33	=33	=33	=33	=33	=33	=33	=33	=33	=33	=33	=33	=33	=33	=33	=33	=33	=33	=33	=33	=33	=33	=33	=33	=33
!	!	!	!	!	!	!	!	!LO:DY:a	!	!	!	!	!	!	!	!	!	!	!	!LO:DY:a	!	!	!	!	!	!	!	!	!	!	!	!	!	!
*	*	*	*	*	*	*	*	*	*	*	*	*	*	*	*	*ij	*	*	*	*	*	*	*	*	*	*	*	*	*	*	*	*	*	*
4BB-/	.	.	4b-\	.	8B-/ 8dL	.	(16b-\LL	>	4B-\	-lej-	.	4d\	-lej-	.	4b-\	Chri-	.	4dd^\	Chri-	<	2.r	.	2.r	.	2.r	.	4B-\	.	4d/	.	4B-/	.	4b-\	.
.	.	.	.	.	.	.	16bb-\	.	.	.	.	.	.	.	.	.	.	.	.	.	.	.	.	.	.	.	.	.	.	.	.	.	.	.
.	.	.	.	.	8B-/ 8d	.	16ddd\	.	.	.	.	.	.	.	.	.	.	.	.	.	.	.	.	.	.	.	.	.	.	.	.	.	.	.
.	.	.	.	.	.	.	16ccc\JJ	.	.	.	.	.	.	.	.	.	.	.	.	.	.	.	.	.	.	.	.	.	.	.	.	.	.	.
4D^/	.	.	4dd\	.	8B-/ 8d	.	16bb-\LL	.	4B-\	-son	.	4d\	-son	.	4b-\	-ste	.	4dd\	-ste	.	.	.	.	.	.	.	4BB-/	.	4r	]	4r	.	4r	.
.	.	.	.	.	.	.	16ff#X\	.	.	.	.	.	.	.	.	.	.	.	.	.	.	.	.	.	.	.	.	.	.	.	.	.	.	.
.	.	.	.	.	8B-/ 8d	.	16ggn\	]	.	.	.	.	.	.	.	.	.	.	.	.	.	.	.	.	.	.	.	.	.	.	.	.	.	.
.	.	.	.	.	.	.	16dd\JJ	.	.	.	.	.	.	.	.	.	.	.	.	.	.	.	.	.	.	.	.	.	.	.	.	.	.	.
!	!	!	!	!	!	!	!LO:LB:g=original	!	!	!	!	!	!	!	!	!	!	!	!	!	!	!	!	!	!	!	!	!	!	!	!	!	!	!
4BB-/	.	.	4b-\	.	8B-/ 8d	.	16ee-\LL	.	4r	.	.	4r	.	.	4b-\	e-	.	4dd\	e-	[[	.	.	.	.	.	.	4r	.	4r	.	4r	.	4r	.
.	.	.	.	.	.	.	16dd\	.	.	.	.	.	.	.	.	.	.	.	.	.	.	.	.	.	.	.	.	.	.	.	.	.	.	.
.	.	.	.	.	8B-/ 8dJ	.	16cc\	.	.	.	.	.	.	.	.	.	.	.	.	.	.	.	.	.	.	.	.	.	.	.	.	.	.	.
.	.	.	.	.	.	.	16b-\JJ)	.	.	.	.	.	.	.	.	.	.	.	.	.	.	.	.	.	.	.	.	.	.	.	.	.	.	.
!LO:LB:g=original	!	!	!	!	!LO:LB:g=original	!	!	!	!	!	!	!	!	!	!	!	!	!	!	!	!	!	!	!	!	!	!	!	!	!	!	!	!LO:LB:g=original	!
=34	=34	=34	=34	=34	=34	=34	=34	=34	=34	=34	=34	=34	=34	=34	=34	=34	=34	=34	=34	=34	=34	=34	=34	=34	=34	=34	=34	=34	=34	=34	=34	=34	=34	=34
!	!	!	!	!	!	!	!	!	!	!	!LO:DY:a	!	!	!LO:DY:a	!	!	!	!	!	!	!	!	!	!	!	!	!	!	!	!	!	!LO:DY:a	!	!
4F\	.	.	4f\	.	8c/ 8e-L	.	16a\LL	.	8.c\	Ky-	>	8..e-\	Ky-	<	4cc\	-lej-	.	4ee-\	-lej-	.	2.r	.	2.r	.	2.r	.	4F\	.	4r	.	16a\LL	<	16aa\LL	.
.	.	.	.	.	.	.	16gg\	.	.	.	.	.	.	.	.	.	.	.	.	.	.	.	.	.	.	.	.	.	.	.	16cc\	.	16ccc\	.
.	.	.	.	.	8c/ 8e-	.	16ff\	.	.	.	.	.	.	.	.	.	.	.	.	.	.	.	.	.	.	.	.	.	.	.	16ee-\	.	16eee-\	.
.	.	.	.	.	.	.	16ee-\JJ	.	16c\	-ri-	.	.	.	.	.	.	.	.	.	.	.	.	.	.	.	.	.	.	.	.	16dd\JJ	.	16ddd\JJ	.
.	.	.	.	.	.	.	.	.	.	.	.	32e-\	-ri-	.	.	.	.	.	.	.	.	.	.	.	.	.	.	.	.	.	.	.	.	.
!	!	!	!	!	!	!	!	!LO:DY:a	!	!	!	!	!	!	!	!	!	!	!	!	!	!	!	!	!	!	!	!	!	!	!	!LO:DY:a	!	!
4FF/	.	.	4F/	.	8c/ 8e-	.	16cc\LL	>	8c\	-e	]	8e-\	-e	.	4cc\	-son	.	4ee-\	-son	.	.	.	.	.	.	.	4A\	.	4r	.	16cc\LL	[ >	16ccc\LL	.
.	.	.	.	.	.	.	16a\	.	.	.	.	.	.	.	.	.	.	.	.	.	.	.	.	.	.	.	.	.	.	.	16bX\	.	16bb-\	.
!	!	!	!	!	!	!	!	!	!	!	!LO:DY:a	!	!	!	!	!	!	!	!	!	!	!	!	!	!	!	!	!	!	!	!	!	!	!
.	.	.	.	.	8c/ 8e-	.	16f\	.	16c\	Ky-	<	16e-\	Ky-	.	.	.	.	.	.	.	.	.	.	.	.	.	.	.	.	.	16cc\	.	16aa\	.
.	.	.	.	.	.	.	16e-\JJ	.	16c\	-ri-	.	16e-\	-ri-	.	.	.	.	.	.	.	.	.	.	.	.	.	.	.	.	.	16b-\JJ	.	16gg\JJ	.
!	!	!	!	!	!	!	!	!	!	!	!	!	!	!	!	!	!	!	!	!	!	!	!	!	!	!	!	!	!	!LO:DY:a	!	!	!	!
4r	.	.	4r	.	8c/ 8e-	.	16e-/LL	.	8c\	-e	.	8e-\	-e	.	4r	.	.	4r	.	.	.	.	.	.	.	.	4F\	.	4e-/	>	16f/LL	.	16ff\LL	.
.	.	.	.	.	.	.	16d/	.	.	.	.	.	.	.	.	.	.	.	.	.	.	.	.	.	.	.	.	.	.	.	16e-/	.	16ee-\	.
.	.	.	.	.	8c/ 8e-J	.	16f/	.	8c\	e-	[[	8e-\	e-	[[	.	.	.	.	.	.	.	.	.	.	.	.	.	.	.	.	16d/	.	16dd\	.
.	.	.	.	.	.	.	16A/JJ	]]	.	.	.	.	.	.	.	.	.	.	.	.	.	.	.	.	.	.	.	.	.	.	16c/JJ	]]	16cc\JJ	.
*	*	*	*	*	*Xtremolo	*	*Xtremolo	*	*	*	*	*	*	*	*	*Xij	*	*	*	*	*	*	*	*	*	*	*	*	*	*	*	*	*	*
!	!	!	!	!	!	!	!	!	!	!	!	!	!	!	!	!	!	!	!	!	!	!	!	!	!	!	!	!	!	!	!LO:LB:g=original	!	!	!
=35	=35	=35	=35	=35	=35	=35	=35	=35	=35	=35	=35	=35	=35	=35	=35	=35	=35	=35	=35	=35	=35	=35	=35	=35	=35	=35	=35	=35	=35	=35	=35	=35	=35	=35
!	!	!	!	!	!	!	!	!	!	!	!	!	!	!	!	!	!	!	!	!LO:DY:a	!	!	!	!	!	!	!	!	!	!	!	!	!	!
4BB-/	.	.	4B-/	.	4B-/ 4d	.	4B-/	.	4B-\	-lej-	.	4d\	-lej-	.	4b-\	e-	.	4dd\	e-	<	2.r	.	2.r	.	2.r	.	4B-\	.	2d/	.	2B-/	.	4bb-\	.
4r	.	.	4r	.	8d/L	.	8f/L	<	4B-\	-son	.	4d\	-son	.	2b-\	-lej-	.	2dd\	-lej-	.	.	.	.	.	.	.	4f\	.	.	.	.	.	8.ddd\L	.
.	.	.	.	.	8e-/J	.	8g/	.	.	.	.	.	.	.	.	.	.	.	.	.	.	.	.	.	.	.	.	.	.	.	.	.	.	.
.	.	.	.	.	.	.	.	.	.	.	.	.	.	.	.	.	.	.	.	.	.	.	.	.	.	.	.	.	.	.	.	.	16eee-\K	.
4r	.	.	4r	.	8d/L	.	8f/	[ <	4B-\	e-	.	4f\	e-	.	.	.	.	.	.	.	.	.	.	.	.	.	4d\	.	4r	]	4r	.	8.ddd\	.
.	.	.	.	.	8e-/J	.	8g/J	[[	.	.	.	.	.	.	.	.	.	.	.	.	.	.	.	.	.	.	.	.	.	.	.	.	.	.
.	.	.	.	.	.	.	.	.	.	.	.	.	.	.	.	.	.	.	.	.	.	.	.	.	.	.	.	.	.	.	.	.	16eee-\Jk	.
!	!	!	!	!	!	!	!	!	!	!	!	!LO:LB:g=original	!	!	!	!	!	!	!	!	!	!	!	!	!	!	!	!	!	!	!	!	!	!
=36	=36	=36	=36	=36	=36	=36	=36	=36	=36	=36	=36	=36	=36	=36	=36	=36	=36	=36	=36	=36	=36	=36	=36	=36	=36	=36	=36	=36	=36	=36	=36	=36	=36	=36
4BB-/	.	.	4B-/	.	2B-/ 2d	.	4f/	.	4B-\	-lej-	.	4f\	-lej-	.	2b-\	-son	.	2dd^\	-son	.	2.r	.	2.r	.	2.r	.	4B-\	.	2.r	.	2.r	.	4ddd\	.
4B-\	.	.	4b-\	.	.	.	4r	.	4BB-/	-son	.	4f\	son	.	.	.	.	.	.	.	.	.	.	.	.	.	4BB-/	.	.	.	.	.	4r	.
!	!	!	!	!	!	!	!	!LO:DY:a	!	!	!	!	!	!	!	!	!	!	!	!	!	!	!	!	!	!	!	!	!	!	!	!	!	!
!	!	!	!	!	!	!	!LO:TX:t=P:problem: problem klamry łukowej	!	!	!	!	!	!	!	!	!	!	!	!	!	!	!	!	!	!	!	!	!	!	!	!	!	!	!
4r	.	.	4r	.	4r	.	12ff\L	<	4r	.	.	4r	.	.	4r	.	.	4r	.	[[	.	.	.	.	.	.	4r	.	.	.	.	.	4r	.
.	.	.	.	.	.	.	12dd\	.	.	.	.	.	.	.	.	.	.	.	.	.	.	.	.	.	.	.	.	.	.	.	.	.	.	.
.	.	.	.	.	.	.	12bn\J	[[	.	.	.	.	.	.	.	.	.	.	.	.	.	.	.	.	.	.	.	.	.	.	.	.	.	.
!	!	!	!	!	!	!	!	!	!	!	!	!	!	!	!	!	!	!LO:LB:g=original	!	!	!	!	!	!	!	!	!	!	!	!	!	!	!	!
=37	=37	=37	=37	=37	=37	=37	=37	=37	=37	=37	=37	=37	=37	=37	=37	=37	=37	=37	=37	=37	=37	=37	=37	=37	=37	=37	=37	=37	=37	=37	=37	=37	=37	=37
!	!	!	!	!	!	!	!LO:SIC:s=4bn	!	!	!	!	!	!	!	!	!	!	!	!	!LO:DY:a	!	!	!	!	!	!	!	!	!	!	!	!LO:DY:a	!	!
!	!	!	!	!	!	!	!	!	!	!	!	!	!	!	!	!	!LO:DY:b:t=for	!	!	!	!	!	!	!	!	!	!	!	!	!	!	!	!	!
!	!	!	!	!	!	!LO:DY:b:t=for	!	!	!	!	!LO:DY:b:t=for	!	!	!LO:DY:b:t=ffo	!	!	!	!	!	!	!	!	!	!	!	!	!	!	!	!	!	!	!	!
4A-X^\	6 4	rf	4a-X\	.	4G/ 4f	f	4b-^\	rfz	8..G\	Ky-	f	8..f\	Ky-	ff	8..bn\	Ky-	f	8.dd\	Ky-	>	2.r	.	2.r	.	2.r	.	8.G^\L	.	4dd^\	rfz	4ff\	rfz >	4ddd\	.
.	.	.	.	.	.	.	.	.	.	.	.	.	.	.	.	.	.	16dd\	-ri-	.	.	.	.	.	.	.	16Bn\Jk	.	.	.	.	.	.	.
!	!	!	!	!	!	!	!	!	!	!	!	!	!	!	!	!	!	!	!	!	!	!	!	!	!	!	!	!	!	!	!	!	!	!
.	.	.	.	.	.	.	.	.	32G\	-ri-	.	32f\	-ri-	.	32b\	-ri-	.	.	.	.	.	.	.	.	.	.	.	.	.	.	.	.	.	.
!	!	!	!	!	!	!	!	!	!	!	!	!	!	!	!	!	!	!	!	!	!	!	!	!	!	!	!	!	!	!	!	!	!	!
4G\	6 4	.	4g\	.	4G/ 4e-	.	8cc\L	p	4C/	-e	.	4e-\	-e	.	4g\	-e	.	4cc\	-e	.	.	.	.	.	.	.	(8c\L	.	4cc\	.	4ee-\	.	4eee-\	.
.	.	.	.	.	.	.	8gg\	.	.	.	.	.	.	.	.	.	.	.	.	.	.	.	.	.	.	.	8d\	.	.	.	.	.	.	.
4r	.	.	4r	.	4r	.	8ee-\	.	8..r	.	.	8r	.	.	8r	.	.	8r	.	]	.	.	.	.	.	.	8e-\	.	4r	.	4r	]]	4r	.
!	!	!	!	!	!	!	!	!	!	!	!	!	!	!	!	!	!	!	!	!	!	!	!	!	!	!	!	!	!	!	!	!	!	!
.	.	.	.	.	.	.	8cc\J	.	.	.	.	8e-\	e-	.	8g\	e-	.	8cc\	e-	.	.	.	.	.	.	.	8c\J)	.	.	.	.	.	.	.
.	.	.	.	.	.	.	.	.	32C/	e-	.	.	.	.	.	.	.	.	.	.	.	.	.	.	.	.	.	.	.	.	.	.	.	.
!	!	!	!	!	!	!	!	!	!	!	!	!	!	!	!LO:LB:g=original	!	!	!	!	!	!	!	!	!	!	!	!	!	!	!	!	!	!	!
!	!	!	!	!	!	!	!	!	!	!	!	!	!	!	!	!	!	!	!	!	!	!	!	!	!	!	!	!	!LO:LB:g=original	!	!	!	!	!
=38	=38	=38	=38	=38	=38	=38	=38	=38	=38	=38	=38	=38	=38	=38	=38	=38	=38	=38	=38	=38	=38	=38	=38	=38	=38	=38	=38	=38	=38	=38	=38	=38	=38	=38
!	!	!	!	!	!	!	!	!	!	!	!	!	!	!	!	!	!	!	!	!LO:DY:a	!	!	!	!	!	!	!	!	!	!	!	!LO:DY:a	!	!
4F\	7 5	.	4f\	.	4c/ 4e-	.	4a^\	rf	4F\	-lej-	.	4e-\	-lej-	.	4a\	-lej-	.	4cc\	-lej-	>	2.r	.	2.r	.	2.r	.	8.F^\L	.	4cc^\	rfz	4ee-\	rfz >	4ccc\	.
.	.	.	.	.	.	.	.	.	.	.	.	.	.	.	.	.	.	.	.	.	.	.	.	.	.	.	(16A\Jk	.	.	.	.	.	.	.
!	!	!	!	!	!	!	!	!LO:DY:b:t=p.	!	!	!	!	!	!	!	!	!	!	!	!	!	!	!	!	!	!	!	!	!	!	!	!	!	!
4BB-^/	3	.	4B-/	.	4B-/ 4d	.	8b-X\L	p	4BB-/	-son	.	4d\	-son	.	4f\	-son	.	4b-\	-son	.	.	.	.	.	.	.	8B-\L	.	4b-\	.	4dd\	.	4ddd\	.
.	.	.	.	.	.	.	8ff\	.	.	.	.	.	.	.	.	.	.	.	.	.	.	.	.	.	.	.	8c\	.	.	.	.	.	.	.
4D\	.	.	4d/	.	4r	.	8dd\	.	4r	.	.	4r	.	.	4r	.	.	4r	.	]	.	.	.	.	.	.	8d\	.	4r	.	4r	]	4r	.
.	.	.	.	.	.	.	8bn\J	.	.	.	.	.	.	.	.	.	.	.	.	.	.	.	.	.	.	.	8B-\J)	.	.	.	.	.	.	.
!	!	!	!LO:LB:g=original	!	!	!	!LO:LB:g=original	!	!LO:LB:g=original	!	!	!	!	!	!	!	!	!	!	!	!	!	!	!	!	!	!	!	!	!	!	!	!	!
=39	=39	=39	=39	=39	=39	=39	=39	=39	=39	=39	=39	=39	=39	=39	=39	=39	=39	=39	=39	=39	=39	=39	=39	=39	=39	=39	=39	=39	=39	=39	=39	=39	=39	=39
!	!	!	!	!	!	!	!	!	!	!	!LO:DY:a	!	!	!	!	!	!LO:DY:b:t=p.	!	!	!LO:DY:a	!	!	!	!	!	!	!	!	!	!	!	!	!	!
4E-\	6 3	.	4e-\	.	4c/ 4e-	.	(16cc\LL	.	4E-\	e-	<	4g\	e-	.	4cc\	e-	p	4ee-\	e-	>	4r	p	4r	.	4r	.	4e-\	.	(4cc\	.	(4ee-\	.	(4eee-\	.
.	.	.	.	.	.	.	16gg\	.	.	.	.	.	.	.	.	.	.	.	.	.	.	.	.	.	.	.	.	.	.	.	.	.	.	.
.	.	.	.	.	.	.	16ee-\	.	.	.	.	.	.	.	.	.	.	.	.	.	.	.	.	.	.	.	.	.	.	.	.	.	.	.
.	.	.	.	.	.	.	16cc\JJ)	.	.	.	.	.	.	.	.	.	.	.	.	.	.	.	.	.	.	.	.	.	.	.	.	.	.	.
4F\	6 4	.	4f\	.	4B-/ 4d	.	4b-T\	.	(4F\	-lej-	.	2f^\	-lej-	.	(4b-X\	-lej-	.	4dd\	-lej-	.	4BB-/	.	4b-\	p	4dd\	p	4f\	.	4b-\	.	4dd\	.	4ddd\	.
!	!	!	!	!	!	!	!	!	!	!	!LO:DY:a	!	!	!	!	!	!	!	!	!	!	!	!	!	!	!	!	!	!	!	!	!	!	!
4FF/	5 3	.	4F/	.	4c/ 4e-	.	4a\	.	4FF/)	.	[ <	.	.	.	4a\)	.	.	4cc\	.	]]	4FF/	.	4f\	.	4cc\	.	4F\	.	4a\)	.	4cc\)	.	4ccc\)	.
=40	=40	=40	=40	=40	=40	=40	=40	=40	=40	=40	=40	=40	=40	=40	=40	=40	=40	=40	=40	=40	=40	=40	=40	=40	=40	=40	=40	=40	=40	=40	=40	=40	=40	=40
!	!	!	!	!	!LO:TX:t=P:problem:mixed beam	!	!	!	!	!	!	!	!	!	!	!	!	!	!	!	!	!	!	!	!	!	!	!	!	!	!	!	!	!
4BB-/	.	.	4B-/	.	8d\L	.	16b-'\LL	.	4BB-/	-son	.	4f\	-son	.	4b-\	-son	.	4dd^\	-son	.	4BB-/	.	4d/	.	4b-\	.	4B-\	.	4b-\	.	4dd\	.	4ddd\	.
.	.	.	.	.	.	.	16bb-'\	.	.	.	.	.	.	.	.	.	.	.	.	.	.	.	.	.	.	.	.	.	.	.	.	.	.	.
!	!	!	!	!	!	!	!	!	!	!	!	!	!	!	!	!	!	!	!	!	!	!	!	!	!	!	!	!	!	!	!	!	!	!
.	.	.	.	.	16bb-\L	.	16ddd'\	.	.	.	.	.	.	.	.	.	.	.	.	.	.	.	.	.	.	.	.	.	.	.	.	.	.	.
!	!	!	!	!	!	!LO:DY:a	!	!	!	!	!	!	!	!	!	!	!	!	!	!	!	!	!	!	!	!	!	!	!	!	!	!	!	!
.	.	.	.	.	16aa\JJ	>	16ccc'\JJ	.	.	.	.	.	.	.	.	.	.	.	.	.	.	.	.	.	.	.	.	.	.	.	.	.	.	.
!	!	!	!	!	!	!	!	!LO:DY:a	!	!	!	!	!	!	!	!	!	!	!	!	!	!	!	!	!	!	!	!	!	!	!	!	!	!
4r	.	.	4r	.	16gg\LL	.	16bb-'\LL	>	4r	.	[	4r	.	.	4r	.	.	4r	.	.	4r	.	4r	.	4r	.	4BB-/	.	4r	.	4r	.	4r	.
.	.	.	.	.	16ff\	.	16aa'\	.	.	.	.	.	.	.	.	.	.	.	.	.	.	.	.	.	.	.	.	.	.	.	.	.	.	.
.	.	.	.	.	16ee-\	.	16gg'\	.	.	.	.	.	.	.	.	.	.	.	.	.	.	.	.	.	.	.	.	.	.	.	.	.	.	.
.	.	.	.	.	16dd\JJ	.	16ff'\JJ	.	.	.	.	.	.	.	.	.	.	.	.	.	.	.	.	.	.	.	.	.	.	.	.	.	.	.
4r	.	.	4r	.	16cc\LL	]	16ee-'\LL	.	4r	.	.	4r	.	.	4r	.	.	4r	.	.	4r	.	4r	.	4r	.	4r	.	4r	.	4r	.	4r	.
.	.	.	.	.	16b-\	.	16dd'\	.	.	.	.	.	.	.	.	.	.	.	.	.	.	.	.	.	.	.	.	.	.	.	.	.	.	.
.	.	.	.	.	16a\	.	16cc'\	.	.	.	.	.	.	.	.	.	.	.	.	.	.	.	.	.	.	.	.	.	.	.	.	.	.	.
.	.	.	.	.	16bn\JJ	.	16dd'\JJ	]]	.	.	.	.	.	.	.	.	.	.	.	.	.	.	.	.	.	.	.	.	.	.	.	.	.	.
!	!	!	!	!	!LO:LB:g=original	!	!	!	!	!	!	!	!	!	!	!	!	!	!	!	!	!	!	!	!	!	!	!	!	!	!	!	!	!
=41	=41	=41	=41	=41	=41	=41	=41	=41	=41	=41	=41	=41	=41	=41	=41	=41	=41	=41	=41	=41	=41	=41	=41	=41	=41	=41	=41	=41	=41	=41	=41	=41	=41	=41
!	!	!	!	!LO:DY:b:t=fo	!	!LO:DY:a	!	!	!	!	!LO:DY:a	!	!	!	!	!	!	!	!	!LO:DY:a	!LO:TX:a:t=2	!	!LO:TX:a:t=2	!	!LO:TX:a:t=2	!	!	!	!	!	!	!	!	!
!	!	!LO:DY:b:t=fo	!	!	!	!	!	!	!	!	!	!	!	!	!	!	!	!	!	!	!	!	!	!	!	!	!	!	!	!LO:DY:b:t=fo	!	!	!	!
4G\	.	f	4g\	f	4g/ 4bn	<	(8dd\L	.	8..G\	Ky-	>	8..fn\	Ky-	.	8..bn\	Ky-	f	8.dd\	Ky-	>	2.r	.	2.r	.	2.r	.	8.f^\L	.	8..dd\L	f	8.ff\L	rfz	8.ddd\L	.
.	.	.	.	.	.	.	8bn\J	.	.	.	.	.	.	.	.	.	.	.	.	.	.	.	.	.	.	.	.	.	.	.	.	.	.	.
.	.	.	.	.	.	.	.	.	.	.	.	.	.	.	.	.	.	16dd\	-ri-	.	.	.	.	.	.	.	16d\Jk	.	.	.	16dd\Jk	.	16bbn\Jk	.
!	!	!	!	!	!	!	!	!	!	!	!	!	!	!	!	!	!	!	!	!	!	!	!	!	!	!	!	!	!	!LO:DY:a	!	!	!	!
.	.	.	.	.	.	.	.	.	32G\	-ri-	.	32f\	-ri-	.	32b\	-ri-	.	.	.	.	.	.	.	.	.	.	.	.	32bX\Jkk	>	.	.	.	.
!	!	!	!	!LO:DY:a	!	!	!	!	!	!	!	!	!	!	!	!	!	!	!	!	!	!	!	!	!	!	!	!	!	!	!	!	!	!
8C\L	5_ 3_	.	8e-\L	>	4g/ 4cc	.	8cc\L	.	4C/	-e	]	4e-\	-e	.	4g\	-e	.	4cc\	-e	.	.	.	.	.	.	.	(8en\L	.	4cc\	.	4ee-\	.	4ccc\	.
!	!	!	!	!	!	!	!	!LO:DY:a	!	!	!	!	!	!	!	!	!	!	!	!	!	!	!	!	!	!	!	!	!	!	!	!	!	!
8D\	.	.	8d#X\	.	.	.	16aa\L	>	.	.	.	.	.	.	.	.	.	.	.	.	.	.	.	.	.	.	8G\	.	.	.	.	.	.	.
.	.	.	.	.	.	.	16gg\JJ	.	.	.	.	.	.	.	.	.	.	.	.	.	.	.	.	.	.	.	.	.	.	.	.	.	.	.
8D#X\	.	.	8dn\	.	4r	[	16ff\LL	.	8..r	.	.	8..r	.	.	8..r	.	.	8r	.	]	.	.	.	.	.	.	8D\	.	4r	]	4r	.	4r	.
.	.	.	.	.	.	.	16ee-\	.	.	.	.	.	.	.	.	.	.	.	.	.	.	.	.	.	.	.	.	.	.	.	.	.	.	.
8E-\J	.	.	8c\J	]]	.	.	16dd\	.	.	.	.	.	.	.	.	.	.	8cc\	e-	.	.	.	.	.	.	.	8C\J)	.	.	.	.	.	.	.
.	.	.	.	.	.	.	16cc\JJ)	]]	.	.	.	.	.	.	.	.	.	.	.	.	.	.	.	.	.	.	.	.	.	.	.	.	.	.
!	!	!	!	!	!	!	!	!	!	!	!LO:DY:a	!	!	!	!	!	!	!	!	!	!	!	!	!	!	!	!	!	!	!	!	!	!	!
.	.	.	.	.	.	.	.	.	32C/	lej-	<	32e-^\	e-	.	32g^\	e-	.	.	.	.	.	.	.	.	.	.	.	.	.	.	.	.	.	.
!	!	!	!	!	!	!	!	!	!	!	!	!LO:LB:g=original	!	!	!	!	!	!	!	!	!	!	!	!	!	!	!	!	!	!	!	!	!LO:LB:g=original	!
!LO:LB:g=original	!	!	!	!	!	!	!	!	!	!	!	!	!	!	!	!	!	!	!	!	!	!	!	!	!	!	!LO:LB:g=original	!	!	!	!	!	!	!
=42	=42	=42	=42	=42	=42	=42	=42	=42	=42	=42	=42	=42	=42	=42	=42	=42	=42	=42	=42	=42	=42	=42	=42	=42	=42	=42	=42	=42	=42	=42	=42	=42	=42	=42
!	!	!	!	!	!	!LO:DY:a	!	!	!	!	!	!	!	!	!	!	!	!	!	!	!	!	!	!	!	!	!	!	!	!	!	!	!	!
4F\	.	.	4F/	.	4e-/ 4a	<	8.cc\L	.	4F\	-lej-	.	4e-\	-lej-	.	4a\	-lej-	.	4cc\	-lej-	.	2.r	.	2.r	.	2.r	.	8.e-\L	.	8..cc\L	.	8.ee-\L	rfz	8.ccc\L	.
.	.	.	.	.	.	.	16a\Jk	.	.	.	.	.	.	.	.	.	.	.	.	.	.	.	.	.	.	.	16c\Jk	.	.	.	16cc\Jk	.	16aa\Jk	.
!	!	!	!	!	!	!	!	!	!	!	!	!	!	!	!	!	!	!	!	!	!	!	!	!	!	!	!	!	!	!LO:DY:a	!	!	!	!
.	.	.	.	.	.	.	.	.	.	.	.	.	.	.	.	.	.	.	.	.	.	.	.	.	.	.	.	.	32a\Jkk	>	.	.	.	.
!LO:SIC:s=8BBn	!	!	!	!	!	!	!	!	!	!	!	!	!	!	!	!	!	!	!	!	!	!	!	!	!	!	!	!	!	!	!	!	!	!
8BB-/L	5_ 3_	.	8cn/L	.	4d/ 4b-	.	8b-\L	.	4BB-/	-son	[	4d\	-son	.	4f\	-son	.	4b-\	-son	.	.	.	.	.	.	.	8d\L	.	4b-\	.	4dd\	.	4bb-\	.
!LO:SIC:s=8C-	!	!	!	!	!	!	!	!LO:DY:a	!	!	!	!	!	!	!	!	!	!	!	!	!	!	!	!	!	!	!	!	!	!	!	!	!	!
8C/	.	.	8c-X/	.	.	.	16.ddd\L	>	.	.	.	.	.	.	.	.	.	.	.	.	.	.	.	.	.	.	8F\	.	.	.	.	.	.	.
.	.	.	.	.	.	.	32ccc\JJk	.	.	.	.	.	.	.	.	.	.	.	.	.	.	.	.	.	.	.	.	.	.	.	.	.	.	.
!	!	!	!	!	!	!	!	!	!	!	!	!	!	!	!	!	!	!	!	!	!	!	!	!	!	!	!	!	!	!	!	!	!	!
8C-X/	.	.	8c-/	.	4r	[	16.bb-\LL	.	4r	.	.	4r	.	.	4r	.	.	4r	.	.	.	.	.	.	.	.	8D\	.	4r	]	4r	.	4r	.
.	.	.	.	.	.	.	32aa\K	.	.	.	.	.	.	.	.	.	.	.	.	.	.	.	.	.	.	.	.	.	.	.	.	.	.	.
8Cn/J	.	.	8B-/J	.	.	.	16.gg\	.	.	.	.	.	.	.	.	.	.	.	.	.	.	.	.	.	.	.	8BB-\J	.	.	.	.	.	.	.
.	.	.	.	.	.	.	32ff\JJk	]]	.	.	.	.	.	.	.	.	.	.	.	.	.	.	.	.	.	.	.	.	.	.	.	.	.	.
!	!	!	!	!	!	!	!LO:LB:g=original	!	!	!	!	!	!	!	!	!	!	!	!	!	!	!	!	!	!	!	!	!	!	!	!LO:LB:g=original	!	!	!
=43	=43	=43	=43	=43	=43	=43	=43	=43	=43	=43	=43	=43	=43	=43	=43	=43	=43	=43	=43	=43	=43	=43	=43	=43	=43	=43	=43	=43	=43	=43	=43	=43	=43	=43
!	!	!	!	!	!	!	!	!	!	!	!	!	!	!	!	!	!	!	!	!	!	!	!	!	!	!	!	!	!	!	!	!	!	!
!	!	!LO:DY:b:t=fo	!	!	!	!	!	!	!	!	!LO:DY:b:t=for	!	!	!LO:DY:b:t=rfo	!	!	!	!	!	!	!	!	!	!	!	!	!	!	!	!	!	!	!	!
4E-\	6 3	f	4F/	f	4G/ 4e-	>	4b-\ 4gg	.	2E-\	e-	f <	2e-\	e-	f	2b-\	e-	>	2gg\	e-	>	8BB-/L	p	8d/L	p	8b-\L	p	8e-\L	.	4ee-^\	.	4gg^\	.	4eee-\	.
.	.	.	.	.	.	.	.	.	.	.	.	.	.	.	.	.	.	.	.	.	16BB-/L	.	16d/L	.	16b-\L	.	8c\	.	.	.	.	.	.	.
.	.	.	.	.	.	]	.	.	.	.	.	.	.	.	.	.	.	.	.	.	16BB-/JJ	.	16d/JJ	.	16b-\JJ	.	.	.	.	.	.	.	.	.
4r	.	.	4r	.	4r	.	4r	.	.	.	.	.	.	.	.	.	.	.	.	.	8BB-/L	.	8d/L	.	8b-\L	.	8A\	.	4r	.	4r	.	4r	.
.	.	.	.	.	.	.	.	.	.	.	.	.	.	.	.	.	]]	.	.	.	8BB-/	.	8d/	.	8b-\	.	8F\	.	.	.	.	.	.	.
!	!	!	!	!	!	!	!	!	!	!	!	!	!	!	!	!	!	!	!	!	!	!	!	!	!	!	!	!	!	!LO:DY:a	!	!	!	!
4F\	.	.	4G/	.	4c/ 4e-	>	4f/ 4a	.	4F\	-lej-	[[	4f\	-lej-	.	4c\	-lej-	.	4a\	-lej-	]	8FF/	.	8f/	.	8cc\	.	8E-\	.	4ee-\	<	4aa\	.	4fff\	.
.	.	.	.	.	.	]	.	.	.	.	.	.	.	.	.	.	.	.	.	.	8FF/J	.	8f/J	.	8cc\J	.	8C\J	.	.	.	.	.	.	.
=44	=44	=44	=44	=44	=44	=44	=44	=44	=44	=44	=44	=44	=44	=44	=44	=44	=44	=44	=44	=44	=44	=44	=44	=44	=44	=44	=44	=44	=44	=44	=44	=44	=44	=44
!	!	!	!	!	!	!	!	!	!	!	!	!	!	!	!	!	!	!	!	!	!	!	!	!	!	!	!	!	!	!	!	!	!	!
!	!	!LO:DY:b:t=p.	!LO:TX:t=P:problem:♭ above	!	!	!	!	!	!	!	!	!	!	!	!	!	!	!	!	!LO:DY:a	!	!	!	!	!	!	!	!	!	!	!LO:TX:a:t=Solo	!	!	!
4B-\	.	p	4B-X/	.	4B-/ 4d	> ]	4d/ 4b-	.	4BB-/	-son	>	4f\	-son	.	4d\	-son	.	4b-\	-son	>	4BB-/	.	4d/	.	4b-\	.	4BB-/	.	4dd\	.	4bb-\	p	4ddd\	.
4r	.	.	4r	.	4r	.	4r	.	4r	.	]	4r	.	.	4r	.	.	4r	.	]	4r	.	4r	.	4r	.	4r	.	4r	[	4r	.	4r	.
!	!	!	!	!	!	!	!	!	!	!	!	!	!	!	!	!	!	!	!	!	!	!	!	!	!	!	!	!LO:DY:b:t=p.	!	!LO:DY:a	!	!	!	!
4r	.	.	4r	.	4r	.	4r	.	4r	.	.	4r	.	.	4r	.	.	4r	.	.	4r	.	4r	.	4r	.	4F\	p	4dd\	p <	4ff\	.	4fff\	p
=45	=45	=45	=45	=45	=45	=45	=45	=45	=45	=45	=45	=45	=45	=45	=45	=45	=45	=45	=45	=45	=45	=45	=45	=45	=45	=45	=45	=45	=45	=45	=45	=45	=45	=45
!	!	!	!	!	!	!	!	!	!LO:TX:a:t=3	!	!	!	!	!	!LO:TX:a:t=3	!	!	!LO:TX:a:t=3	!	!	!LO:TX:a:t=1	!	!LO:TX:a:t=1	!	!	!	!	!	!	!	!	!	!	!
4r	.	.	4r	.	4r	.	4r	.	2.r	.	.	2.r	.	.	2.r	.	.	2.r	.	.	2.r	.	2.r	.	2.r	.	4B-\	.	4b-\	.	4dd\	.	4ddd\	.
4r	.	.	4r	.	4r	.	4r	.	.	.	.	.	.	.	.	.	.	.	.	.	.	.	.	.	.	.	4r	.	4r	[	4r	.	4r	.
4F^\	.	.	4F/	.	4d/	p > ]	4f/	p	.	.	.	.	.	.	.	.	.	.	.	.	.	.	.	.	.	.	4r	.	4r	.	4r	.	4ff\	.
!	!	!	!	!	!	!	!	!	!	!	!	!	!	!	!	!	!	!	!	!	!	!	!	!	!	!	!	!	!LO:LB:g=original	!	!	!	!	!
=46	=46	=46	=46	=46	=46	=46	=46	=46	=46	=46	=46	=46	=46	=46	=46	=46	=46	=46	=46	=46	=46	=46	=46	=46	=46	=46	=46	=46	=46	=46	=46	=46	=46	=46
!	!	!	!	!	!	!LO:DY:a	!	!	!	!	!	!	!	!	!	!	!	!	!	!	!	!	!	!	!	!	!	!	!	!	!	!	!	!
4BB-/	.	pp	4B-/	.	4B-/	<	4d/	.	2.r	.	.	2.r	.	.	2.r	.	.	2.r	.	.	4r	.	4r	.	4r	.	4r	.	4r	.	4r	.	4dd\	.
!	!	!	!	!	!	!	!	!	!	!	!	!	!	!	!	!	!	!	!	!	!	!	!	!	!	!LO:DY:b:t=pp.	!	!	!	!	!	!	!	!
4F\	.	.	4f/	.	4f/	.	4d/ 4b-	.	.	.	.	.	.	.	.	.	.	.	.	.	4FF/	pp	4d/	pp	4f/	pp	4f\	.	4d/	pp	4b-\	pp	4bb-\	.
4D\	.	pp	4d/	.	4f/	[[	4d/ 4b-	.	.	.	.	.	.	.	.	.	.	.	.	.	4FF/	.	4d/	.	4f/	.	4d\	.	4d/	.	4b-\	.	4bb-\	.
=47	=47	=47	=47	=47	=47	=47	=47	=47	=47	=47	=47	=47	=47	=47	=47	=47	=47	=47	=47	=47	=47	=47	=47	=47	=47	=47	=47	=47	=47	=47	=47	=47	=47	=47
!	!	!	!	!	!	!	!	!	!	!	!	!	!	!	!	!	!	!	!	!	!LO:TX:a:t=t	!	!	!	!	!	!	!	!	!	!	!	!	!
*	*	*	*	*	*	*	*	*	*	*	*	*	*	*	*	*	*	*	*	*	*tremolo	*	*	*	*	*	*	*	*	*	*	*	*	*
2BB-/	.	.	2B-/	.	2f/	> ]	2d/ 2b-	.	2.r	.	.	2.r	.	.	2.r	.	.	2.r	.	.	32FF/LLL	.	2d/	.	2f/	.	2B-\	.	2d/	.	2b-\	.	2bb-\	.
.	.	.	.	.	.	.	.	.	.	.	.	.	.	.	.	.	.	.	.	.	32FF/	.	.	.	.	.	.	.	.	.	.	.	.	.
.	.	.	.	.	.	.	.	.	.	.	.	.	.	.	.	.	.	.	.	.	32FF/	.	.	.	.	.	.	.	.	.	.	.	.	.
.	.	.	.	.	.	.	.	.	.	.	.	.	.	.	.	.	.	.	.	.	32FF/	.	.	.	.	.	.	.	.	.	.	.	.	.
.	.	.	.	.	.	.	.	.	.	.	.	.	.	.	.	.	.	.	.	.	32FF/	.	.	.	.	.	.	.	.	.	.	.	.	.
.	.	.	.	.	.	.	.	.	.	.	.	.	.	.	.	.	.	.	.	.	32FF/	.	.	.	.	.	.	.	.	.	.	.	.	.
.	.	.	.	.	.	.	.	.	.	.	.	.	.	.	.	.	.	.	.	.	32FF/	.	.	.	.	.	.	.	.	.	.	.	.	.
.	.	.	.	.	.	.	.	.	.	.	.	.	.	.	.	.	.	.	.	.	32FF/	.	.	.	.	.	.	.	.	.	.	.	.	.
.	.	.	.	.	.	.	.	.	.	.	.	.	.	.	.	.	.	.	.	.	32FF/	.	.	.	.	.	.	.	.	.	.	.	.	.
.	.	.	.	.	.	.	.	.	.	.	.	.	.	.	.	.	.	.	.	.	32FF/	.	.	.	.	.	.	.	.	.	.	.	.	.
.	.	.	.	.	.	.	.	.	.	.	.	.	.	.	.	.	.	.	.	.	32FF/	.	.	.	.	.	.	.	.	.	.	.	.	.
.	.	.	.	.	.	.	.	.	.	.	.	.	.	.	.	.	.	.	.	.	32FF/	.	.	.	.	.	.	.	.	.	.	.	.	.
.	.	.	.	.	.	.	.	.	.	.	.	.	.	.	.	.	.	.	.	.	32FF/	.	.	.	.	.	.	.	.	.	.	.	.	.
.	.	.	.	.	.	.	.	.	.	.	.	.	.	.	.	.	.	.	.	.	32FF/	.	.	.	.	.	.	.	.	.	.	.	.	.
.	.	.	.	.	.	.	.	.	.	.	.	.	.	.	.	.	.	.	.	.	32FF/	.	.	.	.	.	.	.	.	.	.	.	.	.
.	.	.	.	.	.	.	.	.	.	.	.	.	.	.	.	.	.	.	.	.	32FF/JJJ	.	.	.	.	.	.	.	.	.	.	.	.	.
*	*	*	*	*	*	*	*	*	*	*	*	*	*	*	*	*	*	*	*	*	*Xtremolo	*	*	*	*	*	*	*	*	*	*	*	*	*
4r	.	.	4r	.	4r	.	4r	.	.	.	.	.	.	.	.	.	.	.	.	.	4r	.	4r	.	4r	.	4r	.	4r	.	4r	.	4r	.
==	==	==	==	==	==	==	==	==	==	==	==	==	==	==	==	==	==	==	==	==	==	==	==	==	==	==	==	==	==	==	==	==	==	==
*-	*-	*-	*-	*-	*-	*-	*-	*-	*-	*-	*-	*-	*-	*-	*-	*-	*-	*-	*-	*-	*-	*-	*-	*-	*-	*-	*-	*-	*-	*-	*-	*-	*-	*-
!!!system-decoration: [(s1,s2,s3,s4)][(s5,s6)][s7][(s8,s9,s10,s11)][(s12,s13,s14)]s15
!!!RDF**kern: > = above
!!!RDF**kern: < = below
!!!ENC: Krzysztof Stępień
!!!END: 2020-09-18
!!!AIN: 1 alto 1 bass 2 clars 2 clrno 1 fagot 1 flt 1 organ 1 soprn 1 tenor 1 timpa 1 viola 2 violn
!!!ENC: Jan Barakat
!!!END: 2022-02-20
